;FLAVOR:Marlin
;TIME:749
;Filament used: 0.291006m
;Layer height: 0.2
;MINX:102.303
;MINY:107.3
;MINZ:0.2
;MAXX:132.697
;MAXY:127.7
;MAXZ:12
;Generated with Cura_SteamEngine 5.0.0
M140 S62
M105
M190 S62
M104 S200
M105
M109 S200
M82 ;absolute extrusion mode
M201 X500.00 Y500.00 Z100.00 E5000.00 ;Setup machine max acceleration
M203 X500.00 Y500.00 Z10.00 E50.00 ;Setup machine max feedrate
M204 P500.00 R1000.00 T500.00 ;Setup Print/Retract/Travel acceleration
M205 X8.00 Y8.00 Z0.40 E5.00 ;Setup Jerk
M220 S100 ;Reset Feedrate
M221 S100 ;Reset Flowrate

G28 ;Home

G92 E0 ;Reset Extruder
G1 Z2.0 F3000 ;Move Z Axis up
G1 X10.1 Y20 Z0.28 F5000.0 ;Move to start position
G1 X10.1 Y200.0 Z0.28 F1500.0 E15 ;Draw the first line
G1 X10.4 Y200.0 Z0.28 F5000.0 ;Move to side a little
G1 X10.4 Y20 Z0.28 F1500.0 E30 ;Draw the second line
G92 E0 ;Reset Extruder
G1 Z2.0 F3000 ;Move Z Axis up

G92 E0
G92 E0
G1 F1500 E-6
;LAYER_COUNT:60
;LAYER:0
M107 P1
G0 F6000 X122.927 Y127.7 Z0.2
G0 X125.527 Y117.982
G0 X125.527 Y117.116
G0 X122.927 Y107.3
;TYPE:SKIRT
G1 F1500 E0
G1 F1200 X123.716 Y107.34 E0.02628
G1 X124.496 Y107.459 E0.05252
G1 X125.261 Y107.657 E0.0788
G1 X125.859 Y107.872 E0.09994
G1 X126.436 Y108.109 E0.12068
G1 X126.67 Y108.211 E0.12917
G1 X127.354 Y108.55 E0.15457
G1 X127.578 Y108.675 E0.1631
G1 X128.299 Y109.131 E0.19147
G1 X128.507 Y109.279 E0.19996
G1 X129.156 Y109.794 E0.22752
G1 X129.348 Y109.964 E0.23605
G1 X129.917 Y110.522 E0.26255
G1 X130.09 Y110.71 E0.27105
G1 X130.579 Y111.297 E0.29646
G1 X130.732 Y111.5 E0.30492
G1 X131.205 Y112.205 E0.33315
G1 X131.333 Y112.42 E0.34148
G1 X131.727 Y113.171 E0.36968
G1 X131.832 Y113.401 E0.37809
G1 X132.142 Y114.192 E0.40635
G1 X132.221 Y114.431 E0.41472
G1 X132.427 Y115.177 E0.44046
G1 X132.482 Y115.423 E0.44885
G1 X132.624 Y116.281 E0.47777
G1 X132.651 Y116.529 E0.48607
G1 X132.697 Y117.373 E0.51418
G1 X132.697 Y117.626 E0.5226
G1 X132.651 Y118.47 E0.55071
G1 X132.624 Y118.718 E0.55901
G1 X132.485 Y119.563 E0.58749
G1 X132.43 Y119.811 E0.59594
G1 X132.221 Y120.57 E0.62212
G1 X132.142 Y120.809 E0.6305
G1 X131.833 Y121.598 E0.65868
G1 X131.729 Y121.826 E0.66701
G1 X131.337 Y122.575 E0.69513
G1 X131.208 Y122.792 E0.70353
G1 X130.743 Y123.486 E0.73131
G1 X130.59 Y123.69 E0.73979
G1 X130.06 Y124.323 E0.76725
G1 X129.886 Y124.51 E0.77575
G1 X129.328 Y125.054 E0.80167
G1 X129.137 Y125.222 E0.81013
G1 X128.499 Y125.726 E0.83717
G1 X128.289 Y125.875 E0.84573
G1 X127.579 Y126.324 E0.87367
G1 X127.357 Y126.448 E0.88213
G1 X126.684 Y126.782 E0.90712
G1 X126.449 Y126.885 E0.91566
G1 X126.183 Y126.984 E0.9251
G1 X126.098 Y127.027 E0.92826
G1 X125.361 Y127.311 E0.95453
G1 X124.599 Y127.519 E0.98081
G1 X123.82 Y127.649 E1.00707
G1 X122.927 Y127.7 E1.03682
G1 X112.073 Y127.7 E1.39783
G1 X111.284 Y127.66 E1.4241
G1 X110.504 Y127.541 E1.45035
G1 X109.739 Y127.343 E1.47663
G1 X109.135 Y127.125 E1.49799
G1 X108.336 Y126.792 E1.52678
G1 X107.628 Y126.44 E1.55308
G1 X107.407 Y126.316 E1.5615
G1 X106.71 Y125.875 E1.58894
G1 X106.5 Y125.726 E1.5975
G1 X105.845 Y125.207 E1.6253
G1 X105.654 Y125.038 E1.63378
G1 X105.083 Y124.478 E1.66038
G1 X104.91 Y124.29 E1.66888
G1 X104.421 Y123.703 E1.69429
G1 X104.268 Y123.5 E1.70274
G1 X103.792 Y122.791 E1.73115
G1 X103.663 Y122.574 E1.73954
G1 X103.271 Y121.825 E1.76766
G1 X103.167 Y121.597 E1.77599
G1 X102.858 Y120.808 E1.80418
G1 X102.779 Y120.569 E1.81255
G1 X102.57 Y119.81 E1.83873
G1 X102.515 Y119.562 E1.84718
G1 X102.376 Y118.721 E1.87553
G1 X102.349 Y118.474 E1.8838
G1 X102.303 Y117.626 E1.91204
G1 X102.303 Y117.374 E1.92043
G1 X102.348 Y116.533 E1.94844
G1 X102.375 Y116.284 E1.95677
G1 X102.515 Y115.436 E1.98535
G1 X102.57 Y115.188 E1.9938
G1 X102.776 Y114.439 E2.01964
G1 X102.854 Y114.202 E2.02794
G1 X103.167 Y113.401 E2.05654
G1 X103.272 Y113.171 E2.06495
G1 X103.671 Y112.411 E2.0935
G1 X103.8 Y112.195 E2.10187
G1 X104.257 Y111.514 E2.12915
G1 X104.41 Y111.31 E2.13763
G1 X104.94 Y110.677 E2.16509
G1 X105.114 Y110.49 E2.17358
G1 X105.672 Y109.946 E2.1995
G1 X105.863 Y109.778 E2.20796
G1 X106.501 Y109.274 E2.235
G1 X106.711 Y109.125 E2.24357
G1 X107.421 Y108.676 E2.27151
G1 X107.643 Y108.552 E2.27997
G1 X108.327 Y108.213 E2.30536
G1 X108.563 Y108.11 E2.31392
G1 X108.836 Y108.008 E2.32361
G1 X108.924 Y107.964 E2.32689
G1 X109.661 Y107.682 E2.35313
G1 X110.424 Y107.476 E2.37942
G1 X111.203 Y107.349 E2.40567
G1 X112.073 Y107.3 E2.43465
G1 X122.927 Y107.3 E2.79566
G0 F6000 X122.927 Y107.7
G1 F1200 X123.695 Y107.74 E2.82124
G1 X124.455 Y107.859 E2.84682
G1 X125.198 Y108.057 E2.8724
G1 X125.708 Y108.243 E2.89045
G1 X126.51 Y108.577 E2.91935
G1 X127.159 Y108.899 E2.94344
G1 X127.383 Y109.024 E2.95198
G1 X128.067 Y109.457 E2.9789
G1 X128.275 Y109.605 E2.98739
G1 X128.891 Y110.094 E3.01355
G1 X129.083 Y110.264 E3.02208
G1 X129.622 Y110.793 E3.0472
G1 X129.795 Y110.981 E3.0557
G1 X130.26 Y111.538 E3.07983
G1 X130.413 Y111.741 E3.08828
G1 X130.861 Y112.409 E3.11504
G1 X130.989 Y112.624 E3.12336
G1 X131.363 Y113.337 E3.15014
G1 X131.468 Y113.567 E3.15855
G1 X131.762 Y114.318 E3.18537
G1 X131.841 Y114.557 E3.19374
G1 X132.037 Y115.264 E3.21815
G1 X132.092 Y115.51 E3.22653
G1 X132.227 Y116.324 E3.25397
G1 X132.254 Y116.572 E3.26227
G1 X132.297 Y117.373 E3.28895
G1 X132.297 Y117.626 E3.29736
G1 X132.254 Y118.427 E3.32404
G1 X132.227 Y118.675 E3.33234
G1 X132.094 Y119.476 E3.35935
G1 X132.039 Y119.724 E3.3678
G1 X131.841 Y120.444 E3.39263
G1 X131.762 Y120.683 E3.40101
G1 X131.469 Y121.432 E3.42776
G1 X131.365 Y121.66 E3.43609
G1 X130.993 Y122.37 E3.46275
G1 X130.864 Y122.587 E3.47115
G1 X130.423 Y123.246 E3.49752
G1 X130.27 Y123.45 E3.506
G1 X129.768 Y124.051 E3.53205
G1 X129.594 Y124.238 E3.54054
G1 X129.063 Y124.753 E3.56515
G1 X128.872 Y124.921 E3.57361
G1 X128.267 Y125.4 E3.59927
G1 X128.057 Y125.549 E3.60784
G1 X127.384 Y125.975 E3.63433
G1 X127.162 Y126.099 E3.64278
G1 X126.524 Y126.416 E3.66648
G1 X126.289 Y126.519 E3.67501
G1 X126.006 Y126.624 E3.68505
G1 X125.917 Y126.669 E3.68837
G1 X125.198 Y126.943 E3.71396
G1 X124.455 Y127.141 E3.73954
G1 X123.695 Y127.26 E3.76512
G1 X122.927 Y127.3 E3.7907
G1 X112.073 Y127.3 E4.15171
G1 X111.305 Y127.26 E4.17728
G1 X110.545 Y127.141 E4.20287
G1 X109.802 Y126.943 E4.22844
G1 X109.285 Y126.755 E4.24674
G1 X108.495 Y126.425 E4.27522
G1 X107.824 Y126.092 E4.30013
G1 X107.603 Y125.968 E4.30856
G1 X106.942 Y125.549 E4.33459
G1 X106.732 Y125.4 E4.34315
G1 X106.11 Y124.907 E4.36955
G1 X105.919 Y124.738 E4.37804
G1 X105.378 Y124.207 E4.40325
G1 X105.205 Y124.019 E4.41175
G1 X104.74 Y123.462 E4.43588
G1 X104.587 Y123.259 E4.44433
G1 X104.136 Y122.586 E4.47128
G1 X104.007 Y122.369 E4.47968
G1 X103.635 Y121.659 E4.50633
G1 X103.531 Y121.431 E4.51467
G1 X103.238 Y120.682 E4.54142
G1 X103.159 Y120.443 E4.54979
G1 X102.961 Y119.723 E4.57463
G1 X102.906 Y119.475 E4.58308
G1 X102.774 Y118.677 E4.60998
G1 X102.747 Y118.43 E4.61824
G1 X102.703 Y117.626 E4.64502
G1 X102.703 Y117.374 E4.65341
G1 X102.746 Y116.576 E4.67999
G1 X102.773 Y116.327 E4.68832
G1 X102.906 Y115.523 E4.71542
G1 X102.961 Y115.275 E4.72387
G1 X103.156 Y114.564 E4.74839
G1 X103.234 Y114.327 E4.75669
G1 X103.531 Y113.567 E4.78383
G1 X103.636 Y113.337 E4.79224
G1 X104.015 Y112.616 E4.81933
G1 X104.144 Y112.4 E4.8277
G1 X104.577 Y111.754 E4.85356
G1 X104.73 Y111.55 E4.86205
G1 X105.232 Y110.949 E4.88809
G1 X105.406 Y110.762 E4.89659
G1 X105.937 Y110.247 E4.92119
G1 X106.128 Y110.079 E4.92965
G1 X106.733 Y109.6 E4.95532
G1 X106.943 Y109.451 E4.96388
G1 X107.616 Y109.025 E4.99037
G1 X107.838 Y108.901 E4.99883
G1 X108.487 Y108.58 E5.02291
G1 X108.723 Y108.477 E5.03148
G1 X109 Y108.374 E5.0413
G1 X109.103 Y108.322 E5.04514
G1 X109.823 Y108.05 E5.07074
G1 X110.567 Y107.855 E5.09632
G1 X111.327 Y107.738 E5.1219
G1 X112.073 Y107.7 E5.14674
G1 X122.927 Y107.7 E5.50775
G0 F6000 X122.927 Y108.1
G1 F1200 X123.674 Y108.14 E5.53263
G1 X124.412 Y108.259 E5.55749
G1 X125.134 Y108.457 E5.58239
G1 X125.558 Y108.613 E5.59742
G1 X126.35 Y108.944 E5.62597
G1 X126.964 Y109.248 E5.64876
G1 X127.188 Y109.373 E5.65729
G1 X127.835 Y109.782 E5.68275
G1 X128.043 Y109.93 E5.69124
G1 X128.625 Y110.393 E5.71597
G1 X128.817 Y110.563 E5.7245
G1 X129.328 Y111.064 E5.7483
G1 X129.501 Y111.252 E5.7568
G1 X129.94 Y111.779 E5.77962
G1 X130.093 Y111.982 E5.78807
G1 X130.518 Y112.614 E5.8134
G1 X130.646 Y112.829 E5.82172
G1 X130.999 Y113.503 E5.84703
G1 X131.104 Y113.733 E5.85544
G1 X131.382 Y114.443 E5.8808
G1 X131.461 Y114.682 E5.88917
G1 X131.646 Y115.352 E5.91229
G1 X131.701 Y115.598 E5.92067
G1 X131.829 Y116.367 E5.9466
G1 X131.856 Y116.615 E5.9549
G1 X131.897 Y117.373 E5.98015
G1 X131.897 Y117.626 E5.98856
G1 X131.856 Y118.384 E6.01381
G1 X131.829 Y118.632 E6.02211
G1 X131.704 Y119.39 E6.04766
G1 X131.649 Y119.638 E6.05611
G1 X131.461 Y120.319 E6.07961
G1 X131.382 Y120.558 E6.08798
G1 X131.105 Y121.266 E6.11326
G1 X131.001 Y121.494 E6.1216
G1 X130.649 Y122.166 E6.14683
G1 X130.52 Y122.383 E6.15523
G1 X130.103 Y123.006 E6.18016
G1 X129.95 Y123.21 E6.18864
G1 X129.475 Y123.778 E6.21327
G1 X129.301 Y123.965 E6.22177
G1 X128.799 Y124.453 E6.24505
G1 X128.608 Y124.621 E6.25351
G1 X128.036 Y125.074 E6.27778
G1 X127.826 Y125.223 E6.28634
G1 X127.189 Y125.625 E6.3114
G1 X126.967 Y125.749 E6.31985
G1 X126.363 Y126.049 E6.34229
G1 X126.128 Y126.152 E6.35082
G1 X125.842 Y126.258 E6.36096
G1 X125.736 Y126.312 E6.36492
G1 X125.036 Y126.575 E6.38979
G1 X124.312 Y126.762 E6.41466
G1 X123.572 Y126.87 E6.43954
G1 X122.927 Y126.9 E6.46101
G1 X112.073 Y126.9 E6.82202
G1 X111.326 Y126.86 E6.8469
G1 X110.588 Y126.741 E6.87176
G1 X109.866 Y126.543 E6.89666
G1 X109.436 Y126.384 E6.91191
G1 X108.655 Y126.058 E6.94006
G1 X108.02 Y125.743 E6.96363
G1 X107.799 Y125.619 E6.97206
G1 X107.173 Y125.223 E6.9967
G1 X106.963 Y125.074 E7.00526
G1 X106.375 Y124.607 E7.03024
G1 X106.184 Y124.438 E7.03872
G1 X105.672 Y123.936 E7.06257
G1 X105.499 Y123.748 E7.07107
G1 X105.06 Y123.221 E7.09388
G1 X104.907 Y123.018 E7.10233
G1 X104.48 Y122.382 E7.12781
G1 X104.351 Y122.165 E7.13621
G1 X103.999 Y121.493 E7.16144
G1 X103.895 Y121.265 E7.16978
G1 X103.618 Y120.557 E7.19506
G1 X103.539 Y120.318 E7.20343
G1 X103.351 Y119.637 E7.22693
G1 X103.296 Y119.389 E7.23538
G1 X103.171 Y118.634 E7.26083
G1 X103.144 Y118.387 E7.2691
G1 X103.103 Y117.626 E7.29445
G1 X103.103 Y117.374 E7.30283
G1 X103.144 Y116.619 E7.32798
G1 X103.171 Y116.37 E7.33631
G1 X103.296 Y115.609 E7.36196
G1 X103.351 Y115.361 E7.37041
G1 X103.536 Y114.689 E7.39359
G1 X103.614 Y114.452 E7.40189
G1 X103.895 Y113.733 E7.42756
G1 X104 Y113.503 E7.43597
G1 X104.358 Y112.821 E7.46159
G1 X104.487 Y112.605 E7.46996
G1 X104.897 Y111.994 E7.49443
G1 X105.05 Y111.79 E7.50291
G1 X105.525 Y111.222 E7.52754
G1 X105.699 Y111.035 E7.53604
G1 X106.201 Y110.547 E7.55932
G1 X106.392 Y110.379 E7.56778
G1 X106.964 Y109.926 E7.59205
G1 X107.174 Y109.777 E7.60061
G1 X107.811 Y109.375 E7.62567
G1 X108.033 Y109.251 E7.63412
G1 X108.647 Y108.946 E7.65693
G1 X108.883 Y108.843 E7.66549
G1 X109.172 Y108.735 E7.67575
G1 X109.283 Y108.68 E7.67987
G1 X109.984 Y108.419 E7.70475
G1 X110.709 Y108.234 E7.72964
G1 X111.449 Y108.128 E7.7545
G1 X112.073 Y108.1 E7.77528
G1 X122.927 Y108.1 E8.13628
G0 F6000 X122.927 Y108.5
G1 F1200 X123.652 Y108.54 E8.16043
G1 X124.369 Y108.659 E8.18461
G1 X125.408 Y108.984 E8.22081
G1 X126.19 Y109.311 E8.24901
G1 X126.769 Y109.598 E8.2705
G1 X126.993 Y109.723 E8.27903
G1 X127.603 Y110.108 E8.30302
G1 X127.811 Y110.256 E8.31151
G1 X128.36 Y110.693 E8.33485
G1 X128.552 Y110.863 E8.34338
G1 X129.034 Y111.335 E8.36582
G1 X129.207 Y111.523 E8.37432
G1 X129.621 Y112.02 E8.39583
G1 X129.774 Y112.223 E8.40429
G1 X130.174 Y112.819 E8.42816
G1 X130.302 Y113.034 E8.43648
G1 X130.635 Y113.669 E8.46033
G1 X130.74 Y113.899 E8.46874
G1 X131.003 Y114.569 E8.49268
G1 X131.082 Y114.808 E8.50105
G1 X131.256 Y115.439 E8.52282
G1 X131.311 Y115.685 E8.53121
G1 X131.431 Y116.411 E8.55568
G1 X131.458 Y116.659 E8.56398
G1 X131.497 Y117.373 E8.58776
G1 X131.497 Y117.626 E8.59618
G1 X131.458 Y118.34 E8.61996
G1 X131.431 Y118.588 E8.62826
G1 X131.313 Y119.303 E8.65236
G1 X131.258 Y119.551 E8.66081
G1 X131.082 Y120.193 E8.68295
G1 X131.003 Y120.432 E8.69132
G1 X130.741 Y121.1 E8.71519
G1 X130.637 Y121.328 E8.72352
G1 X130.305 Y121.962 E8.74732
G1 X130.176 Y122.179 E8.75572
G1 X129.783 Y122.766 E8.77922
G1 X129.63 Y122.97 E8.7877
G1 X129.182 Y123.506 E8.81093
G1 X129.008 Y123.693 E8.81943
G1 X128.535 Y124.153 E8.84137
G1 X128.344 Y124.321 E8.84983
G1 X127.804 Y124.748 E8.87273
G1 X127.594 Y124.897 E8.88129
G1 X126.993 Y125.276 E8.90493
G1 X126.771 Y125.4 E8.91338
G1 X126.202 Y125.683 E8.93452
G1 X125.967 Y125.786 E8.94305
G1 X125.672 Y125.896 E8.95353
G1 X125.556 Y125.954 E8.95784
G1 X124.875 Y126.206 E8.98199
G1 X124.171 Y126.382 E9.00613
G1 X123.451 Y126.479 E9.03029
G1 X122.927 Y126.5 E9.04773
G1 X112.073 Y126.5 E9.40874
G1 X111.348 Y126.46 E9.43289
G1 X110.631 Y126.341 E9.45706
G1 X109.932 Y126.143 E9.48123
G1 X109.587 Y126.014 E9.49348
G1 X108.814 Y125.691 E9.52134
G1 X108.215 Y125.394 E9.54358
G1 X107.994 Y125.27 E9.55201
G1 X107.405 Y124.897 E9.57519
G1 X107.195 Y124.748 E9.58376
G1 X106.64 Y124.308 E9.60732
G1 X106.449 Y124.139 E9.6158
G1 X105.966 Y123.665 E9.63831
G1 X105.793 Y123.477 E9.6468
G1 X105.379 Y122.98 E9.66832
G1 X105.226 Y122.777 E9.67677
G1 X104.824 Y122.178 E9.70077
G1 X104.695 Y121.961 E9.70916
G1 X104.363 Y121.327 E9.73297
G1 X104.259 Y121.099 E9.7413
G1 X103.997 Y120.431 E9.76517
G1 X103.918 Y120.192 E9.77354
G1 X103.742 Y119.55 E9.79568
G1 X103.687 Y119.302 E9.80413
G1 X103.569 Y118.59 E9.82813
G1 X103.542 Y118.343 E9.8364
G1 X103.503 Y117.626 E9.86028
G1 X103.503 Y117.374 E9.86866
G1 X103.541 Y116.663 E9.89234
G1 X103.568 Y116.414 E9.90067
G1 X103.687 Y115.696 E9.92488
G1 X103.742 Y115.448 E9.93333
G1 X103.916 Y114.814 E9.95519
G1 X103.994 Y114.577 E9.96349
G1 X104.259 Y113.899 E9.9877
G1 X104.364 Y113.669 E9.99611
G1 X104.702 Y113.026 E10.02028
G1 X104.831 Y112.81 E10.02864
G1 X105.217 Y112.234 E10.0517
G1 X105.37 Y112.03 E10.06019
G1 X105.818 Y111.494 E10.08342
G1 X105.992 Y111.307 E10.09192
G1 X106.465 Y110.847 E10.11386
G1 X106.656 Y110.679 E10.12232
G1 X107.196 Y110.252 E10.14522
G1 X107.406 Y110.103 E10.15378
G1 X108.007 Y109.724 E10.17742
G1 X108.229 Y109.6 E10.18587
G1 X108.807 Y109.313 E10.20734
G1 X109.043 Y109.21 E10.2159
G1 X109.337 Y109.1 E10.22634
G1 X109.461 Y109.039 E10.23094
G1 X110.143 Y108.788 E10.25511
G1 X110.849 Y108.615 E10.27928
G1 X111.569 Y108.519 E10.30344
G1 X112.073 Y108.5 E10.32022
G1 X122.927 Y108.5 E10.68122
G0 F6000 X122.927 Y108.9
G1 F1200 X123.63 Y108.94 E10.70464
G1 X124.324 Y109.059 E10.72806
G1 X125.257 Y109.355 E10.76062
G1 X126.03 Y109.677 E10.78847
G1 X126.574 Y109.947 E10.80867
G1 X126.798 Y110.072 E10.8172
G1 X127.371 Y110.434 E10.83975
G1 X127.579 Y110.582 E10.84824
G1 X128.095 Y110.992 E10.87016
G1 X128.287 Y111.162 E10.87869
G1 X128.739 Y111.606 E10.89976
G1 X128.912 Y111.794 E10.90826
G1 X129.301 Y112.26 E10.92845
G1 X129.454 Y112.463 E10.9369
G1 X129.83 Y113.023 E10.95934
G1 X129.958 Y113.238 E10.96766
G1 X130.271 Y113.835 E10.99008
G1 X130.376 Y114.065 E10.99849
G1 X130.623 Y114.694 E11.02096
G1 X130.702 Y114.933 E11.02933
G1 X130.866 Y115.526 E11.0498
G1 X130.921 Y115.772 E11.05818
G1 X131.034 Y116.454 E11.08118
G1 X131.061 Y116.702 E11.08947
G1 X131.097 Y117.373 E11.11182
G1 X131.097 Y117.626 E11.12024
G1 X131.061 Y118.297 E11.14259
G1 X131.034 Y118.545 E11.15088
G1 X130.923 Y119.216 E11.1735
G1 X130.868 Y119.464 E11.18195
G1 X130.702 Y120.068 E11.20279
G1 X130.623 Y120.307 E11.21116
