;FLAVOR:Marlin
;TIME:1541
;Filament used: 0.648357m
;Layer height: 0.2
;MINX:100.304
;MINY:97
;MINZ:0.2
;MAXX:134.696
;MAXY:121.4
;MAXZ:24
;Generated with Cura_SteamEngine 5.0.0
M140 S62
M105
M190 S62
M104 S200
M105
M109 S200
M82 ;absolute extrusion mode
M201 X500.00 Y500.00 Z100.00 E5000.00 ;Setup machine max acceleration
M203 X500.00 Y500.00 Z10.00 E50.00 ;Setup machine max feedrate
M204 P500.00 R1000.00 T500.00 ;Setup Print/Retract/Travel acceleration
M205 X8.00 Y8.00 Z0.40 E5.00 ;Setup Jerk
M220 S100 ;Reset Feedrate
M221 S100 ;Reset Flowrate

G28 ;Home

G92 E0 ;Reset Extruder
G1 Z2.0 F3000 ;Move Z Axis up
G1 X10.1 Y20 Z0.28 F5000.0 ;Move to start position
G1 X10.1 Y200.0 Z0.28 F1500.0 E15 ;Draw the first line
G1 X10.4 Y200.0 Z0.28 F5000.0 ;Move to side a little
G1 X10.4 Y20 Z0.28 F1500.0 E30 ;Draw the second line
G92 E0 ;Reset Extruder
G1 Z2.0 F3000 ;Move Z Axis up

G92 E0
G92 E0
G1 F1500 E-6
;LAYER_COUNT:120
;LAYER:0
M107 P1
G0 F6000 X124.393 Y121.4 Z0.2
G0 X103.025 Y117.303
;TYPE:SKIRT
G1 F1500 E0
G1 F1200 X102.441 Y116.505 E0.03289
G1 X102.222 Y116.162 E0.04643
G1 X101.861 Y115.535 E0.07049
G1 X101.671 Y115.166 E0.08429
G1 X101.4 Y114.581 E0.10574
G1 X101.233 Y114.178 E0.12025
G1 X100.996 Y113.526 E0.14332
G1 X100.864 Y113.105 E0.15799
G1 X100.697 Y112.494 E0.17906
G1 X100.588 Y112.005 E0.19573
G1 X100.503 Y111.554 E0.21099
G1 X100.418 Y110.989 E0.22999
G1 X100.367 Y110.54 E0.24502
G1 X100.316 Y109.856 E0.26784
G1 X100.304 Y109.425 E0.28218
G1 X100.304 Y108.965 E0.29748
G1 X100.327 Y108.369 E0.31731
G1 X100.362 Y107.912 E0.33256
G1 X100.422 Y107.373 E0.3506
G1 X100.487 Y106.931 E0.36546
G1 X100.611 Y106.282 E0.38743
G1 X100.716 Y105.835 E0.4027
G1 X100.876 Y105.253 E0.42278
G1 X101.01 Y104.832 E0.43747
G1 X101.238 Y104.21 E0.45951
G1 X101.401 Y103.817 E0.47366
G1 X101.674 Y103.223 E0.4954
G1 X101.947 Y102.707 E0.51482
G1 X102.151 Y102.354 E0.52838
G1 X102.549 Y101.734 E0.55288
G1 X102.781 Y101.408 E0.56619
G1 X103.28 Y100.779 E0.5929
G1 X103.536 Y100.488 E0.60579
G1 X104.316 Y99.718 E0.64224
G1 X104.736 Y99.358 E0.66064
G1 X105.658 Y98.678 E0.69874
G1 X105.96 Y98.488 E0.71061
G1 X106.31 Y98.299 E0.72384
G1 X106.477 Y98.183 E0.7306
G1 X107.168 Y97.799 E0.7569
G1 X107.893 Y97.487 E0.78315
G1 X108.646 Y97.25 E0.8094
G1 X109.42 Y97.091 E0.83569
G1 X110.205 Y97.01 E0.86193
G1 X110.607 Y97 E0.87531
G1 X124.393 Y97 E1.33383
G1 X125.182 Y97.04 E1.36011
G1 X125.962 Y97.159 E1.38635
G1 X126.727 Y97.357 E1.41263
G1 X127.467 Y97.631 E1.43888
G1 X128.176 Y97.979 E1.46515
G1 X128.532 Y98.201 E1.4791
G1 X128.737 Y98.311 E1.48684
G1 X129.599 Y98.85 E1.52065
G1 X129.888 Y99.058 E1.5325
G1 X130.583 Y99.621 E1.56225
G1 X130.862 Y99.875 E1.57479
G1 X131.611 Y100.659 E1.61086
G1 X131.984 Y101.108 E1.63027
G1 X132.553 Y101.886 E1.66233
G1 X132.772 Y102.228 E1.67584
G1 X133.135 Y102.858 E1.70002
G1 X133.329 Y103.234 E1.71409
G1 X133.61 Y103.841 E1.73634
G1 X133.773 Y104.237 E1.75058
G1 X133.999 Y104.861 E1.77266
G1 X134.132 Y105.283 E1.78737
G1 X134.293 Y105.872 E1.80768
G1 X134.394 Y106.309 E1.8226
G1 X134.508 Y106.909 E1.84291
G1 X134.575 Y107.356 E1.85795
G1 X134.638 Y107.916 E1.87669
G1 X134.673 Y108.373 E1.89193
G1 X134.696 Y108.969 E1.91177
G1 X134.696 Y109.435 E1.92727
G1 X134.673 Y110.037 E1.94731
G1 X134.638 Y110.489 E1.96239
G1 X134.567 Y111.119 E1.98347
G1 X134.494 Y111.576 E1.99887
G1 X134.409 Y112.023 E2.014
G1 X134.261 Y112.655 E2.03559
G1 X134.142 Y113.083 E2.05036
G1 X133.962 Y113.647 E2.07006
G1 X133.813 Y114.059 E2.08463
G1 X133.558 Y114.678 E2.10689
G1 X133.381 Y115.061 E2.12093
G1 X133.051 Y115.698 E2.14479
G1 X132.846 Y116.052 E2.15839
G1 X132.451 Y116.666 E2.18268
G1 X132.219 Y116.992 E2.19598
G1 X131.72 Y117.621 E2.22269
G1 X131.464 Y117.912 E2.23558
G1 X130.866 Y118.521 E2.26397
G1 X130.591 Y118.772 E2.27635
G1 X129.877 Y119.351 E2.30693
G1 X129.584 Y119.561 E2.31892
G1 X128.705 Y120.106 E2.35332
G1 X128.423 Y120.278 E2.3643
G1 X127.727 Y120.651 E2.39057
G1 X126.997 Y120.952 E2.41683
G1 X126.24 Y121.178 E2.4431
G1 X125.465 Y121.326 E2.46935
G1 X124.393 Y121.4 E2.50509
G1 X110.607 Y121.4 E2.96361
G1 X109.818 Y121.36 E2.98989
G1 X109.038 Y121.241 E3.01613
G1 X108.273 Y121.043 E3.04241
G1 X107.533 Y120.769 E3.06866
G1 X106.824 Y120.421 E3.09493
G1 X106.468 Y120.199 E3.10888
G1 X106.263 Y120.089 E3.11662
G1 X105.415 Y119.56 E3.14986
G1 X105.126 Y119.353 E3.16168
G1 X104.397 Y118.762 E3.1929
G1 X104.121 Y118.509 E3.20535
G1 X103.402 Y117.755 E3.24
G1 X103.025 Y117.303 E3.25958
G1 F1500 E-2.74042
G0 F6000 X101.628 Y112.865
G1 F1500 E3.25958
G1 F1200 X101.472 Y112.296 E3.2792
G1 X101.374 Y111.856 E3.2942
G1 X101.289 Y111.405 E3.30946
G1 X101.213 Y110.899 E3.32648
G1 X101.162 Y110.45 E3.34151
G1 X101.115 Y109.812 E3.36279
G1 X101.104 Y109.425 E3.37566
G1 X101.104 Y108.965 E3.39096
G1 X101.124 Y108.43 E3.40877
G1 X101.159 Y107.973 E3.42401
G1 X101.213 Y107.49 E3.44018
G1 X101.278 Y107.048 E3.45504
G1 X101.389 Y106.465 E3.47478
G1 X101.494 Y106.018 E3.49005
G1 X101.639 Y105.496 E3.50807
G1 X101.773 Y105.075 E3.52276
G1 X101.977 Y104.516 E3.54255
G1 X102.14 Y104.123 E3.55671
G1 X102.394 Y103.57 E3.57695
G1 X102.639 Y103.107 E3.59437
G1 X102.843 Y102.754 E3.60793
G1 X103.201 Y102.198 E3.62992
G1 X103.433 Y101.872 E3.64323
G1 X103.88 Y101.307 E3.66719
G1 X104.136 Y101.016 E3.68008
G1 X104.836 Y100.325 E3.7128
G1 X105.256 Y99.965 E3.7312
G1 X106.084 Y99.355 E3.7654
G1 X106.386 Y99.165 E3.77727
G1 X106.727 Y98.981 E3.79016
G1 X107.241 Y98.662 E3.81028
G1 X107.915 Y98.338 E3.83515
G1 X108.62 Y98.088 E3.86003
G1 X109.348 Y97.914 E3.88493
G1 X110.09 Y97.819 E3.90981
G1 X110.607 Y97.8 E3.92701
G1 X124.393 Y97.8 E4.38554
G1 X125.14 Y97.84 E4.41042
G1 X125.878 Y97.959 E4.43528
G1 X126.6 Y98.157 E4.46018
G1 X127.296 Y98.43 E4.48505
G1 X127.959 Y98.777 E4.50994
G1 X129.132 Y99.5 E4.55577
G1 X129.421 Y99.708 E4.56761
G1 X130.044 Y100.213 E4.59428
G1 X130.323 Y100.467 E4.60683
G1 X130.995 Y101.17 E4.63918
G1 X131.368 Y101.619 E4.65859
G1 X131.879 Y102.317 E4.68737
G1 X132.098 Y102.659 E4.70087
G1 X132.424 Y103.224 E4.72257
G1 X132.618 Y103.6 E4.73664
G1 X132.87 Y104.146 E4.75664
G1 X133.033 Y104.542 E4.77089
G1 X133.236 Y105.102 E4.7907
G1 X133.369 Y105.524 E4.80541
G1 X133.513 Y106.052 E4.82362
G1 X133.614 Y106.489 E4.83853
G1 X133.717 Y107.027 E4.85675
G1 X133.784 Y107.474 E4.87179
G1 X133.841 Y107.977 E4.88862
G1 X133.876 Y108.434 E4.90387
G1 X133.896 Y108.969 E4.92167
G1 X133.896 Y109.435 E4.93717
G1 X133.875 Y109.975 E4.95515
G1 X133.84 Y110.427 E4.97023
G1 X133.773 Y111.017 E4.98998
G1 X133.708 Y111.427 E5.00378
G1 X133.623 Y111.874 E5.01892
G1 X133.49 Y112.441 E5.03829
G1 X133.371 Y112.869 E5.05306
G1 X133.21 Y113.375 E5.07072
G1 X133.061 Y113.787 E5.08529
G1 X132.832 Y114.343 E5.10529
G1 X132.655 Y114.726 E5.11933
G1 X132.359 Y115.297 E5.14072
G1 X132.154 Y115.651 E5.15433
G1 X131.799 Y116.202 E5.17613
G1 X131.567 Y116.528 E5.18943
G1 X131.12 Y117.093 E5.2134
G1 X130.864 Y117.384 E5.22629
G1 X130.327 Y117.93 E5.25176
G1 X130.052 Y118.181 E5.26414
G1 X129.411 Y118.701 E5.29159
G1 X129.118 Y118.911 E5.30358
G1 X128.329 Y119.4 E5.33446
G1 X127.736 Y119.75 E5.35736
G1 X127.061 Y120.072 E5.38223
G1 X126.355 Y120.319 E5.40711
G1 X125.627 Y120.49 E5.43198
G1 X124.884 Y120.583 E5.45689
G1 X124.393 Y120.6 E5.47323
G1 X110.607 Y120.6 E5.93175
G1 X109.86 Y120.56 E5.95663
G1 X109.122 Y120.441 E5.9815
G1 X108.4 Y120.243 E6.0064
G1 X107.704 Y119.97 E6.03126
G1 X107.041 Y119.623 E6.05615
G1 X105.881 Y118.91 E6.10144
G1 X105.592 Y118.703 E6.11326
G1 X104.938 Y118.172 E6.14128
G1 X104.662 Y117.919 E6.15374
G1 X104.016 Y117.243 E6.18484
G1 X103.639 Y116.791 E6.20441
G1 X103.115 Y116.074 E6.23395
G1 X102.896 Y115.731 E6.24748
G1 X102.573 Y115.168 E6.26907
G1 X102.383 Y114.799 E6.28288
G1 X102.139 Y114.275 E6.3021
G1 X101.972 Y113.872 E6.31661
G1 X101.76 Y113.286 E6.33734
G1 X101.628 Y112.865 E6.35201
G1 F1500 E0.35201
G0 F6000 X101.504 Y108.965
G1 F1500 E6.35201
G1 F1200 X101.523 Y108.461 E6.36879
G1 X101.558 Y108.004 E6.38403
G1 X101.609 Y107.548 E6.39929
G1 X101.674 Y107.106 E6.41415
G1 X101.779 Y106.557 E6.43274
G1 X101.884 Y106.11 E6.44802
G1 X102.02 Y105.617 E6.46503
G1 X102.154 Y105.196 E6.47972
G1 X102.347 Y104.669 E6.49839
G1 X102.51 Y104.276 E6.51254
G1 X102.755 Y103.744 E6.53202
G1 X102.986 Y103.308 E6.54843
G1 X103.19 Y102.955 E6.56199
G1 X103.527 Y102.43 E6.58274
G1 X103.759 Y102.104 E6.59605
G1 X104.181 Y101.572 E6.61863
G1 X104.437 Y101.281 E6.63152
G1 X105.097 Y100.629 E6.66238
G1 X105.517 Y100.269 E6.68078
G1 X106.297 Y99.694 E6.71301
G1 X106.599 Y99.504 E6.72488
G1 X106.921 Y99.33 E6.73705
G1 X106.991 Y99.279 E6.73993
G1 X107.62 Y98.915 E6.7641
G1 X108.285 Y98.622 E6.78827
G1 X108.978 Y98.404 E6.81243
G1 X109.69 Y98.264 E6.83657
G1 X110.607 Y98.2 E6.86714
G1 X124.393 Y98.2 E7.32567
G1 X125.118 Y98.24 E7.34982
G1 X125.835 Y98.359 E7.37399
G1 X126.534 Y98.557 E7.39815
G1 X127.207 Y98.83 E7.42231
G1 X127.846 Y99.175 E7.44646
G1 X128.898 Y99.824 E7.48757
G1 X129.187 Y100.032 E7.49942
G1 X129.775 Y100.509 E7.5246
G1 X130.054 Y100.763 E7.53715
G1 X130.688 Y101.426 E7.56766
G1 X131.061 Y101.875 E7.58708
G1 X131.542 Y102.533 E7.61418
G1 X131.761 Y102.875 E7.62769
G1 X132.068 Y103.408 E7.64815
G1 X132.262 Y103.784 E7.66222
G1 X132.5 Y104.298 E7.68106
G1 X132.663 Y104.694 E7.6953
G1 X132.855 Y105.222 E7.71399
G1 X132.988 Y105.644 E7.72871
G1 X133.123 Y106.142 E7.74587
G1 X133.224 Y106.579 E7.76079
G1 X133.321 Y107.087 E7.77799
G1 X133.388 Y107.534 E7.79302
G1 X133.442 Y108.008 E7.80889
G1 X133.477 Y108.465 E7.82413
G1 X133.496 Y108.969 E7.84091
G1 X133.496 Y109.435 E7.85641
G1 X133.476 Y109.945 E7.87338
G1 X133.407 Y110.733 E7.89969
G1 X133.315 Y111.352 E7.92051
G1 X133.23 Y111.799 E7.93564
G1 X133.105 Y112.334 E7.95391
G1 X132.986 Y112.762 E7.96869
G1 X132.834 Y113.239 E7.98534
G1 X132.685 Y113.651 E7.99991
G1 X132.469 Y114.175 E8.01876
G1 X132.292 Y114.558 E8.0328
G1 X132.012 Y115.096 E8.05297
G1 X131.807 Y115.45 E8.06657
G1 X131.473 Y115.97 E8.08713
G1 X131.241 Y116.296 E8.10044
G1 X130.819 Y116.828 E8.12302
G1 X130.563 Y117.119 E8.13591
G1 X130.057 Y117.635 E8.15995
G1 X129.782 Y117.886 E8.17233
G1 X129.178 Y118.375 E8.19818
G1 X128.885 Y118.585 E8.21017
G1 X128.141 Y119.047 E8.2393
G1 X127.396 Y119.477 E8.26791
G1 X126.732 Y119.772 E8.29208
G1 X126.04 Y119.991 E8.31622
G1 X125.327 Y120.134 E8.3404
G1 X124.393 Y120.2 E8.37155
G1 X110.607 Y120.2 E8.83007
G1 X109.882 Y120.16 E8.85422
G1 X109.165 Y120.041 E8.8784
G1 X108.466 Y119.843 E8.90256
G1 X107.793 Y119.57 E8.92671
G1 X107.154 Y119.225 E8.95087
G1 X106.114 Y118.585 E8.99148
G1 X105.825 Y118.378 E9.00331
G1 X105.208 Y117.877 E9.02974
G1 X104.932 Y117.624 E9.04219
G1 X104.324 Y116.986 E9.07151
G1 X103.947 Y116.534 E9.09108
G1 X103.452 Y115.859 E9.11892
G1 X103.233 Y115.516 E9.13246
G1 X102.928 Y114.985 E9.15283
G1 X102.738 Y114.616 E9.16663
G1 X102.509 Y114.122 E9.18474
G1 X102.342 Y113.719 E9.19925
G1 X102.141 Y113.167 E9.21879
G1 X102.009 Y112.746 E9.23346
G1 X101.859 Y112.196 E9.25242
G1 X101.767 Y111.782 E9.26653
G1 X101.682 Y111.331 E9.28179
G1 X101.61 Y110.854 E9.29784
G1 X101.559 Y110.405 E9.31287
G1 X101.514 Y109.79 E9.33338
G1 X101.504 Y109.425 E9.34552
G1 X101.504 Y108.965 E9.36082
G0 F6000 X101.904 Y108.965
G1 F1200 X101.922 Y108.492 E9.37657
G1 X101.957 Y108.035 E9.39181
G1 X102.005 Y107.606 E9.40617
G1 X102.07 Y107.164 E9.42103
G1 X102.168 Y106.648 E9.4385
G1 X102.273 Y106.201 E9.45377
G1 X102.401 Y105.739 E9.46971
G1 X102.535 Y105.318 E9.48441
G1 X102.716 Y104.823 E9.50194
G1 X102.879 Y104.43 E9.51609
G1 X103.115 Y103.918 E9.53484
G1 X103.332 Y103.508 E9.55027
G1 X103.536 Y103.155 E9.56383
G1 X103.853 Y102.662 E9.58332
G1 X104.085 Y102.336 E9.59663
G1 X104.481 Y101.836 E9.61785
G1 X104.737 Y101.545 E9.63074
G1 X105.357 Y100.933 E9.65971
G1 X105.777 Y100.573 E9.67811
G1 X106.51 Y100.032 E9.70841
G1 X106.812 Y99.842 E9.72028
G1 X107.179 Y99.644 E9.73415
G1 X107.375 Y99.509 E9.74206
G1 X107.996 Y99.177 E9.76549
G1 X108.65 Y98.917 E9.78889
G1 X109.33 Y98.733 E9.81232
G1 X110.026 Y98.627 E9.83574
G1 X110.607 Y98.6 E9.85508
G1 X124.393 Y98.6 E10.31361
G1 X125.096 Y98.64 E10.33703
G1 X125.79 Y98.759 E10.36045
G1 X126.465 Y98.957 E10.38384
G1 X127.114 Y99.229 E10.40725
G1 X127.728 Y99.574 E10.43067
G1 X127.979 Y99.72 E10.44033
G1 X128.665 Y100.149 E10.46724
G1 X128.954 Y100.357 E10.47909
G1 X129.506 Y100.804 E10.50271
G1 X129.785 Y101.058 E10.51526
G1 X130.38 Y101.681 E10.54391
G1 X130.753 Y102.13 E10.56333
G1 X131.205 Y102.749 E10.58882
G1 X131.424 Y103.091 E10.60233
G1 X131.713 Y103.591 E10.62153
G1 X131.907 Y103.967 E10.63561
G1 X132.13 Y104.45 E10.6533
G1 X132.293 Y104.846 E10.66754
G1 X132.473 Y105.342 E10.68509
G1 X132.606 Y105.764 E10.69981
G1 X132.734 Y106.232 E10.71595
G1 X132.835 Y106.669 E10.73087
G1 X132.926 Y107.146 E10.74702
G1 X132.993 Y107.593 E10.76205
G1 X133.043 Y108.039 E10.77698
G1 X133.078 Y108.496 E10.79222
G1 X133.096 Y108.969 E10.80796
G1 X133.096 Y109.435 E10.82346
G1 X133.077 Y109.914 E10.83941
G1 X133.01 Y110.682 E10.86505
G1 X132.922 Y111.277 E10.88505
G1 X132.837 Y111.724 E10.90019
G1 X132.719 Y112.227 E10.91737
G1 X132.6 Y112.655 E10.93215
G1 X132.457 Y113.103 E10.94779
G1 X132.308 Y113.515 E10.96236
G1 X132.106 Y114.007 E10.98005
G1 X131.929 Y114.39 E10.99408
G1 X131.666 Y114.896 E11.01305
G1 X131.461 Y115.25 E11.02666
G1 X131.147 Y115.738 E11.04596
G1 X130.915 Y116.064 E11.05926
G1 X130.519 Y116.564 E11.08048
G1 X130.263 Y116.855 E11.09337
G1 X129.788 Y117.339 E11.11592
G1 X129.513 Y117.59 E11.12831
G1 X128.945 Y118.05 E11.15262
G1 X128.652 Y118.26 E11.16461
G1 X127.953 Y118.694 E11.19197
G1 X127.676 Y118.86 E11.20271
G1 X127.058 Y119.198 E11.22614
G1 X126.407 Y119.464 E11.24953
G1 X125.729 Y119.654 E11.27295
G1 X125.034 Y119.767 E11.29637
G1 X124.393 Y119.8 E11.31772
G1 X110.607 Y119.8 E11.77624
G1 X109.904 Y119.76 E11.79966
G1 X109.21 Y119.641 E11.82308
G1 X108.535 Y119.443 E11.84648
G1 X107.886 Y119.171 E11.86988
G1 X107.272 Y118.826 E11.89331
G1 X107.021 Y118.68 E11.90297
G1 X106.347 Y118.259 E11.9294
G1 X106.058 Y118.052 E11.94122
G1 X105.479 Y117.582 E11.96603
G1 X105.203 Y117.329 E11.97848
G1 X104.631 Y116.73 E12.00603
G1 X104.254 Y116.278 E12.0256
G1 X103.789 Y115.644 E12.05175
G1 X103.57 Y115.301 E12.06529
G1 X103.284 Y114.802 E12.08442
G1 X103.094 Y114.433 E12.09822
G1 X102.878 Y113.969 E12.11524
G1 X102.711 Y113.566 E12.12975
G1 X102.523 Y113.047 E12.14811
G1 X102.391 Y112.626 E12.16279
G1 X102.247 Y112.097 E12.18102
G1 X102.16 Y111.708 E12.19428
G1 X102.075 Y111.257 E12.20955
G1 X102.008 Y110.809 E12.22461
G1 X101.957 Y110.36 E12.23964
G1 X101.913 Y109.767 E12.25942
G1 X101.904 Y109.425 E12.2708
G1 X101.904 Y108.965 E12.2861
G0 F6000 X102.304 Y108.965
G1 F1200 X102.321 Y108.522 E12.30084
G1 X102.356 Y108.065 E12.31609
G1 X102.401 Y107.664 E12.32951
G1 X102.466 Y107.222 E12.34437
G1 X102.558 Y106.74 E12.36069
G1 X102.663 Y106.293 E12.37596
G1 X102.782 Y105.86 E12.3909
G1 X102.916 Y105.439 E12.40559
G1 X103.086 Y104.976 E12.42199
G1 X103.381 Y104.286 E12.44695
G1 X103.678 Y103.708 E12.46857
G1 X103.882 Y103.355 E12.48213
G1 X104.178 Y102.894 E12.50035
G1 X104.41 Y102.568 E12.51366
G1 X104.781 Y102.1 E12.53352
G1 X105.037 Y101.809 E12.54641
G1 X105.617 Y101.236 E12.57353
G1 X106.037 Y100.876 E12.59193
G1 X106.723 Y100.371 E12.62026
G1 X107.025 Y100.181 E12.63213
G1 X107.397 Y99.98 E12.64619
G1 X107.757 Y99.748 E12.66044
G1 X108.369 Y99.449 E12.68309
G1 X109.011 Y99.224 E12.70572
G1 X109.676 Y99.075 E12.72838
G1 X110.607 Y99 E12.75945
G1 X124.393 Y99 E13.21797
G1 X125.073 Y99.04 E13.24063
G1 X125.743 Y99.159 E13.26326
G1 X126.395 Y99.356 E13.28592
G1 X127.019 Y99.628 E13.30856
G1 X127.79 Y100.073 E13.33816
G1 X128.431 Y100.473 E13.36329
G1 X128.72 Y100.681 E13.37514
G1 X129.237 Y101.1 E13.39727
G1 X129.516 Y101.354 E13.40982
G1 X130.072 Y101.937 E13.43661
G1 X130.445 Y102.386 E13.45603
G1 X130.868 Y102.964 E13.47985
G1 X131.087 Y103.306 E13.49336
G1 X131.357 Y103.775 E13.51136
G1 X131.551 Y104.151 E13.52543
G1 X131.76 Y104.602 E13.54196
G1 X131.923 Y104.998 E13.55621
G1 X132.092 Y105.463 E13.57266
