;FLAVOR:Marlin
;TIME:2819
;Filament used: 1.2665m
;Layer height: 0.12
;MINX:86.836
;MINY:84.964
;MINZ:0.144
;MAXX:148.155
;MAXY:150.031
;MAXZ:6.714
;Generated with Cura_SteamEngine 5.0.0
M140 S62
M105
M190 S62
M104 S200
M105
M109 S200
M82 ;absolute extrusion mode
M201 X500.00 Y500.00 Z100.00 E5000.00 ;Setup machine max acceleration
M203 X500.00 Y500.00 Z10.00 E50.00 ;Setup machine max feedrate
M204 P500.00 R1000.00 T500.00 ;Setup Print/Retract/Travel acceleration
M205 X8.00 Y8.00 Z0.40 E5.00 ;Setup Jerk
M220 S100 ;Reset Feedrate
M221 S100 ;Reset Flowrate

G28 ;Home

G92 E0 ;Reset Extruder
G1 Z2.0 F3000 ;Move Z Axis up
G1 X10.1 Y20 Z0.28 F5000.0 ;Move to start position
G1 X10.1 Y200.0 Z0.28 F1500.0 E15 ;Draw the first line
G1 X10.4 Y200.0 Z0.28 F5000.0 ;Move to side a little
G1 X10.4 Y20 Z0.28 F1500.0 E30 ;Draw the second line
G92 E0 ;Reset Extruder
G1 Z2.0 F3000 ;Move Z Axis up

G92 E0
G92 E0
G1 F1500 E-6
;LAYER_COUNT:50
;LAYER:-6
M107 P1
G0 F9000 X87.942 Y117.468 Z0.144
;TYPE:SUPPORT-INTERFACE
G1 F1500 E0
G1 F1125 X87.998 Y118.21 E0.03564
G1 X88.087 Y119.075 E0.07729
G1 X88.195 Y119.887 E0.11652
G1 X88.32 Y120.659 E0.15398
G1 X88.466 Y121.424 E0.19128
G1 X88.576 Y121.953 E0.21715
G1 X88.75 Y122.708 E0.25426
G1 X88.988 Y123.615 E0.29917
G1 X89.218 Y124.394 E0.33808
G1 X89.491 Y125.22 E0.37974
G1 X89.759 Y125.953 E0.41712
G1 X90.017 Y126.614 E0.45111
G1 X90.3 Y127.289 E0.48616
G1 X90.577 Y127.914 E0.5189
G1 X90.91 Y128.618 E0.5562
G1 X91.322 Y129.427 E0.59968
G1 X91.706 Y130.127 E0.63792
G1 X92.302 Y131.149 E0.69459
G1 X92.774 Y131.902 E0.73715
G1 X93.197 Y132.531 E0.77346
G1 X93.987 Y133.605 E0.83731
G1 X94.751 Y134.545 E0.89533
G1 X95.248 Y135.123 E0.93184
G1 X95.671 Y135.596 E0.96223
G1 X96.213 Y136.176 E1.00025
G1 X96.659 Y136.634 E1.03087
G1 X97.171 Y137.135 E1.06518
G1 X98.12 Y137.993 E1.12645
G1 X98.796 Y138.551 E1.16843
G1 X99.768 Y139.309 E1.22747
G1 X100.288 Y139.689 E1.25831
G1 X100.956 Y140.157 E1.29738
G1 X101.968 Y140.834 E1.35569
G1 X102.475 Y141.264 E1.38753
G1 X102.927 Y141.756 E1.41953
G1 X103.655 Y142.657 E1.47501
G1 X103.928 Y142.966 E1.49476
G1 X104.884 Y143.947 E1.56036
G1 X105.8 Y144.752 E1.61877
G1 X106.182 Y145.058 E1.64221
G1 X107.19 Y145.786 E1.70176
G1 X107.57 Y146.044 E1.72376
G1 X107.853 Y146.218 E1.73967
G1 X108.983 Y146.873 E1.80223
G1 X109.812 Y147.288 E1.84663
G1 X110.847 Y147.726 E1.90046
G1 X111.141 Y147.837 E1.91551
G1 X112.115 Y148.163 E1.9647
G1 X112.466 Y148.263 E1.98218
G1 X113.464 Y148.519 E2.03153
G1 X113.811 Y148.595 E2.04854
G1 X115.335 Y148.84 E2.12247
G1 X115.69 Y148.88 E2.13958
G1 X117.106 Y148.957 E2.2075
G1 X117.414 Y148.968 E2.22226
G1 X117.801 Y148.96 E2.2408
G1 X119.167 Y148.889 E2.30631
G1 X119.561 Y148.851 E2.32527
G1 X121.121 Y148.609 E2.40088
G1 X121.973 Y148.419 E2.44269
G1 X123.092 Y148.097 E2.49846
G1 X123.455 Y147.977 E2.51677
G1 X124.509 Y147.58 E2.57071
G1 X125.695 Y147.036 E2.6332
G1 X126.438 Y146.648 E2.67335
G1 X127.359 Y146.093 E2.72485
G1 X127.782 Y145.814 E2.74912
G1 X128.626 Y145.213 E2.79874
G1 X129.586 Y144.422 E2.85832
G1 X129.876 Y144.166 E2.87685
G1 X130.752 Y143.316 E2.93531
G1 X131.591 Y142.368 E2.99594
G1 X132.285 Y141.507 E3.04891
G1 X132.767 Y141.034 E3.08125
G1 X133.286 Y140.635 E3.1126
G1 X133.759 Y140.32 E3.13982
G1 X134.411 Y139.888 E3.17728
G1 X135.36 Y139.198 E3.23348
G1 X136.308 Y138.445 E3.29146
G1 X136.9 Y137.948 E3.32848
G1 X137.468 Y137.444 E3.36485
G1 X138.091 Y136.862 E3.40569
G1 X138.751 Y136.202 E3.45039
G1 X139.284 Y135.634 E3.4877
G1 X139.795 Y135.059 E3.52454
G1 X140.309 Y134.448 E3.56278
G1 X141.1 Y133.454 E3.62362
G1 X141.741 Y132.568 E3.676
G1 X142.445 Y131.509 E3.7369
G1 X142.856 Y130.85 E3.7741
G1 X143.242 Y130.193 E3.8106
G1 X143.611 Y129.53 E3.84694
G1 X144.026 Y128.727 E3.89023
G1 X144.357 Y128.031 E3.92714
G1 X144.791 Y127.033 E3.97926
G1 X145.094 Y126.252 E4.01939
G1 X145.425 Y125.356 E4.06513
G1 X145.713 Y124.502 E4.1083
G1 X145.938 Y123.754 E4.14571
G1 X146.187 Y122.817 E4.19214
G1 X146.374 Y122.02 E4.23135
G1 X146.494 Y121.453 E4.25911
G1 X146.634 Y120.719 E4.2949
G1 X146.751 Y120.001 E4.32974
G1 X146.863 Y119.194 E4.36876
G1 X146.94 Y118.536 E4.40049
G1 X147.006 Y117.824 E4.43474
G1 X147.069 Y116.849 E4.48153
G1 X147.092 Y116.138 E4.5156
G1 X147.092 Y115.648 E4.53907
G1 X147.092 Y115.261 E4.55761
G1 X147.07 Y114.44 E4.59694
G1 X147.013 Y113.463 E4.64382
G1 X146.942 Y112.7 E4.68052
G1 X146.864 Y112.029 E4.71287
G1 X146.758 Y111.269 E4.74962
G1 X146.659 Y110.661 E4.77913
G1 X146.518 Y109.891 E4.81662
G1 X146.377 Y109.212 E4.84983
G1 X146.204 Y108.478 E4.88595
G1 X145.954 Y107.535 E4.93268
G1 X145.712 Y106.732 E4.97284
G1 X145.515 Y106.135 E5.00295
G1 X145.232 Y105.339 E5.04342
G1 X144.781 Y104.173 E5.10329
G1 X144.343 Y103.167 E5.15584
G1 X144.011 Y102.479 E5.19243
G1 X143.44 Y101.371 E5.25213
G1 X142.825 Y100.306 E5.31103
G1 X142.407 Y99.647 E5.34841
G1 X142.07 Y99.138 E5.37765
G1 X141.626 Y98.501 E5.41483
G1 X141.189 Y97.902 E5.45035
G1 X140.718 Y97.286 E5.48749
G1 X139.949 Y96.342 E5.5458
G1 X139.113 Y95.406 E5.60591
G1 X138.555 Y94.831 E5.64428
G1 X138.082 Y94.367 E5.67602
G1 X137.512 Y93.832 E5.71346
G1 X137.066 Y93.431 E5.74218
G1 X136.45 Y92.899 E5.78117
G1 X135.501 Y92.127 E5.83976
G1 X134.521 Y91.403 E5.89812
G1 X133.853 Y90.948 E5.93683
G1 X133.061 Y90.448 E5.98168
G1 X132.393 Y90.054 E6.01883
G1 X131.958 Y89.81 E6.04272
G1 X131.432 Y89.516 E6.07158
G1 X130.619 Y89.096 E6.1154
G1 X129.911 Y88.757 E6.153
G1 X129.293 Y88.479 E6.18546
G1 X128.516 Y88.152 E6.22583
G1 X127.891 Y87.905 E6.25802
G1 X127.218 Y87.659 E6.29234
G1 X126.391 Y87.381 E6.33412
G1 X125.629 Y87.151 E6.37225
G1 X124.69 Y86.901 E6.41879
G1 X123.931 Y86.724 E6.45611
G1 X123.353 Y86.601 E6.48442
G1 X122.61 Y86.458 E6.52066
G1 X121.856 Y86.335 E6.55725
G1 X121.102 Y86.232 E6.59369
G1 X120.237 Y86.136 E6.63538
G1 X119.463 Y86.074 E6.67257
G1 X118.322 Y86.027 E6.72726
G1 X116.767 Y86.026 E6.80174
G1 X115.651 Y86.066 E6.85522
G1 X114.876 Y86.123 E6.89244
G1 X113.964 Y86.219 E6.93636
G1 X113.163 Y86.328 E6.97508
G1 X112.538 Y86.43 E7.00541
G1 X111.779 Y86.569 E7.04236
G1 X111.084 Y86.713 E7.07636
G1 X110.296 Y86.898 E7.11512
G1 X109.344 Y87.152 E7.16232
G1 X108.644 Y87.365 E7.19736
G1 X108.013 Y87.573 E7.22918
G1 X107.271 Y87.836 E7.26688
G1 X106.389 Y88.179 E7.31221
G1 X105.667 Y88.487 E7.3498
G1 X105.042 Y88.77 E7.38266
G1 X104.354 Y89.102 E7.41925
G1 X103.198 Y89.699 E7.48157
G1 X102.486 Y90.099 E7.52068
G1 X101.865 Y90.47 E7.55533
G1 X101.013 Y91.019 E7.60387
G1 X100.389 Y91.452 E7.64025
G1 X99.674 Y91.98 E7.68282
G1 X99.033 Y92.483 E7.72184
G1 X98.042 Y93.307 E7.78357
G1 X97.288 Y93.991 E7.83233
G1 X96.698 Y94.563 E7.87168
G1 X95.952 Y95.322 E7.92265
G1 X95.212 Y96.133 E7.97524
G1 X94.685 Y96.759 E8.01443
G1 X93.922 Y97.713 E8.07294
G1 X93.417 Y98.389 E8.11335
G1 X92.975 Y99.018 E8.15017
G1 X92.41 Y99.887 E8.19981
G1 X92.015 Y100.541 E8.23641
G1 X91.619 Y101.242 E8.27497
G1 X91.213 Y102.007 E8.31645
G1 X90.667 Y103.12 E8.37582
G1 X90.394 Y103.716 E8.40722
G1 X90.089 Y104.431 E8.44445
G1 X89.753 Y105.284 E8.48836
G1 X89.477 Y106.057 E8.52767
G1 X89.277 Y106.657 E8.55796
G1 X89.038 Y107.435 E8.59694
G1 X88.781 Y108.386 E8.64412
G1 X88.614 Y109.093 E8.67892
G1 X88.464 Y109.804 E8.71372
G1 X88.314 Y110.612 E8.75308
G1 X88.212 Y111.237 E8.78341
G1 X88.108 Y111.97 E8.81887
G1 X88.011 Y112.853 E8.86141
G1 X87.95 Y113.619 E8.89822
G1 X87.902 Y114.762 E8.95301
G1 X87.901 Y116.325 E9.02787
G1 X87.942 Y117.468 E9.08265
G0 F9000 X88.368 Y117.782
G1 F1125 X119.076 Y148.491 E11.16263
G0 F9000 X121.058 Y148.211
G1 F1125 X88.303 Y115.456 E13.38123
G0 F9000 X88.38 Y113.27
G1 F1125 X122.856 Y147.746 E15.7164
G0 F9000 X124.51 Y147.138
G1 F1125 X88.621 Y111.248 E18.14731
G0 F9000 X88.972 Y109.337
G1 F1125 X126.039 Y146.403 E20.65794
G0 F9000 X127.45 Y145.552
G1 F1125 X89.428 Y107.53 E23.23329
G0 F9000 X89.986 Y105.825
G1 F1125 X128.75 Y144.589 E25.8589
G0 F9000 X129.954 Y143.53
G1 F1125 X90.623 Y104.2 E28.52288
G0 F9000 X91.341 Y102.655
G1 F1125 X131.055 Y142.369 E31.21284
G0 F9000 X132.089 Y141.139
G1 F1125 X92.12 Y101.171 E33.92003
G0 F9000 X92.971 Y99.759
G1 F1125 X133.334 Y140.122 E36.65395
G0 F9000 X134.674 Y139.2
G1 F1125 X93.894 Y98.42 E39.41611
G0 F9000 X94.887 Y97.149
G1 F1125 X135.952 Y138.215 E42.1976
G0 F9000 X137.171 Y137.171
G1 F1125 X95.935 Y95.935 E44.99065
G0 F9000 X97.05 Y94.787
G1 F1125 X138.324 Y136.061 E47.78627
G0 F9000 X139.412 Y134.887
G1 F1125 X98.216 Y93.691 E50.57661
G0 F9000 X99.452 Y92.664
G1 F1125 X140.435 Y133.646 E53.35248
G0 F9000 X141.403 Y132.352
G1 F1125 X100.745 Y91.694 E56.10638
G0 F9000 X102.107 Y90.793
G1 F1125 X142.299 Y130.985 E58.82871
G0 F9000 X143.134 Y129.558
G1 F1125 X103.547 Y89.971 E61.51006
G0 F9000 X105.05 Y89.211
G1 F1125 X143.899 Y128.06 E64.14143
G0 F9000 X144.577 Y126.476
G1 F1125 X106.622 Y88.52 E66.71228
G0 F9000 X108.276 Y87.912
G1 F1125 X145.183 Y124.819 E69.2121
G0 F9000 X145.703 Y123.076
G1 F1125 X110.016 Y87.388 E71.62933
G0 F9000 X111.857 Y86.967
G1 F1125 X146.125 Y121.234 E73.95038
G0 F9000 X146.441 Y119.288
G1 F1125 X113.8 Y86.647 E76.16126
G0 F9000 X115.875 Y86.459
G1 F1125 X146.642 Y117.228 E78.24527
G0 F9000 X146.685 Y115.007
G1 F1125 X118.105 Y86.428 E80.18105
G0 F9000 X120.51 Y86.57
G1 F1125 X146.521 Y112.58 E81.94283
G0 F9000 X146.106 Y109.903
G1 F1125 X123.185 Y86.982 E83.49534
G0 F9000 X126.212 Y87.746
G1 F1125 X145.329 Y106.863 E84.7902
G0 F9000 X143.899 Y103.171
G1 F1125 X129.95 Y89.222 E85.73501
G1 F1500 E79.73501
G0 F9000 X131.011 Y88.102
G0 X133.615 Y89.537
G0 X134.852 Y90.347
G0 X136.771 Y91.783
G0 X136.234 Y93.243
G1 F1500 E85.73501
G1 F1125 X139.862 Y96.871 E85.98074
G1 F1500 E79.98074
G0 F9000 X140.996 Y95.937
G0 X139.268 Y94.038
G0 X137.136 Y92.086
G0 X135.034 Y90.461
G0 X132.562 Y88.925
G0 X130.295 Y87.762
G0 X127.474 Y86.621
G0 X124.861 Y85.845
G0 X121.917 Y85.267
G0 X119.419 Y85.006
G0 X116.613 Y84.964
G0 X113.839 Y85.161
G0 X111.468 Y85.544
G0 X109.006 Y86.141
G0 X105.986 Y87.192
G0 X103.383 Y88.399
G0 X101.244 Y89.602
G0 X98.971 Y91.176
G0 X96.563 Y93.212
G0 X94.352 Y95.499
G0 X92.483 Y97.862
G0 X90.902 Y100.338
G0 X89.561 Y102.969
G0 X88.435 Y105.811
G0 X87.731 Y108.194
G0 X87.151 Y111.131
G0 X86.878 Y113.717
G0 X86.839 Y116.472
G0 X87.005 Y118.785
G0 X87.231 Y120.591
G0 X88.677 Y120.355
G1 F1500 E85.98074
G1 F1125 X116.866 Y148.543 E87.89004
G0 F9000 X114.332 Y148.272
G1 F1125 X89.305 Y123.245 E89.5852
G0 F9000 X90.483 Y126.686
G1 F1125 X111.243 Y147.445 E90.9913
G1 F1500 E84.9913
G0 F9000 X110.446 Y148.711
G0 X108.48 Y147.814
G0 X106.654 Y146.716
G0 X105.782 Y146.065
G0 X104.442 Y144.983
G0 X105.408 Y143.874
G1 F1500 E90.9913
G1 F1125 X104.18 Y142.646 E91.07448
G0 F9000 X101.718 Y140.183
G1 F1125 X92.932 Y131.398 E91.66955
G1 F1500 E85.66955
G0 F300 X92.932 Y131.398 Z0.324
G0 F9000 X91.405 Y131.726
G0 X89.95 Y129.082
G0 X88.761 Y126.324
G0 X87.961 Y123.899
G0 X87.27 Y120.835
G0 X86.937 Y118.301
G0 X86.836 Y116.339
G0 X86.887 Y113.549
G0 X87.159 Y111.075
G0 X87.748 Y108.122
G0 X88.471 Y105.706
G0 X89.561 Y102.969
G0 X90.902 Y100.338
G0 X92.483 Y97.862
G0 X94.422 Y95.42
G0 X96.563 Y93.212
G0 X98.563 Y91.525
G0 X99.648 Y90.673
G0 X100.613 Y91.784
;TIME_ELAPSED:115.735001
;LAYER:-5
;TYPE:SUPPORT
G1 F1500 E91.66955
G1 F1125 X99.911 Y92.301 E91.72175
G1 X99.295 Y92.786 E91.76868
G1 X98.308 Y93.608 E91.84558
G1 X97.564 Y94.283 E91.90572
G1 X96.979 Y94.852 E91.95458
G1 X96.233 Y95.609 E92.01821
G1 X95.517 Y96.394 E92.08182
G1 X94.993 Y97.013 E92.13037
G1 X94.241 Y97.955 E92.20253
G1 X93.737 Y98.631 E92.25302
G1 X93.257 Y99.317 E92.30314
G1 X101.192 Y91.382 E92.97497
G1 X102.076 Y90.811 E93.03797
G1 X102.677 Y90.452 E93.07988
G1 X103.401 Y90.045 E93.12961
G1 X104.525 Y89.464 E93.20536
G1 X91.35 Y102.639 E94.32084
G1 X91.026 Y103.299 E94.36486
G1 X90.757 Y103.888 E94.40362
G1 X90.455 Y104.593 E94.44954
G1 X90.225 Y105.178 E94.48717
G1 X107.051 Y88.352 E95.91177
G1 X107.412 Y88.212 E95.93495
G1 X108.143 Y87.953 E95.98138
G1 X108.756 Y87.751 E96.02002
G1 X109.203 Y87.614 E96.04801
G1 X89.49 Y107.327 E97.71704
G1 X89.418 Y107.559 E97.73158
G1 X89.168 Y108.485 E97.78901
G1 X88.993 Y109.239 E97.83535
G1 X111.113 Y87.118 E99.70821
G1 X111.86 Y86.961 E99.75391
G1 X112.863 Y86.782 E99.81491
G1 X88.658 Y110.987 E101.86426
G1 X88.506 Y112.02 E101.92677
G1 X88.441 Y112.619 E101.96284
G1 X114.494 Y86.566 E104.16866
G1 X114.91 Y86.522 E104.1937
G1 X115.658 Y86.468 E104.2386
G1 X116.02 Y86.454 E104.26029
G1 X88.33 Y114.145 E106.60474
G1 X88.303 Y114.786 E106.64315
G1 X88.303 Y115.586 E106.69105
G1 X117.462 Y86.427 E109.15984
G1 X118.299 Y86.429 E109.20995
G1 X118.851 Y86.451 E109.24302
G1 X88.325 Y116.977 E111.82755
G1 X88.342 Y117.444 E111.85553
G1 X88.411 Y118.305 E111.90724
G1 X120.18 Y86.536 E114.59701
G1 X121.06 Y86.63 E114.64999
G1 X121.447 Y86.683 E114.67338
G1 X88.558 Y119.572 E117.45797
G1 X88.591 Y119.826 E117.47331
G1 X88.753 Y120.791 E117.53189
G1 X122.666 Y86.878 E120.40318
G1 X123.277 Y86.994 E120.44042
G1 X123.844 Y87.115 E120.47513
G1 X88.99 Y121.968 E123.42605
G1 X89.141 Y122.625 E123.46641
G1 X89.269 Y123.104 E123.49609
G1 X124.98 Y87.393 E126.51962
G1 X125.518 Y87.536 E126.55294
G1 X126.08 Y87.707 E126.58811
G1 X89.582 Y124.205 E129.67827
G1 X89.871 Y125.09 E129.73401
G1 X89.935 Y125.266 E129.74522
G1 X127.142 Y88.059 E132.8954
G1 X127.759 Y88.285 E132.93474
G1 X128.169 Y88.446 E132.96111
G1 X90.322 Y126.293 E136.16549
G1 X90.667 Y127.125 E136.21941
G1 X90.739 Y127.29 E136.23019
G1 X129.167 Y88.862 E139.48375
G1 X129.734 Y89.117 E139.52097
G1 X130.135 Y89.308 E139.54756
G1 X91.183 Y128.26 E142.84549
G1 X91.266 Y128.438 E142.85725
G1 X91.656 Y129.201 E142.90855
G1 X131.076 Y89.782 E146.24606
G1 X131.987 Y90.285 E146.30836
G1 X92.161 Y130.111 E149.68029
G1 X92.683 Y131.003 E149.74216
G1 X132.88 Y90.806 E153.1455
G1 X133.742 Y91.358 E153.20678
G1 X93.233 Y131.867 E156.63654
G1 X93.524 Y132.301 E156.66782
G1 X93.817 Y132.698 E156.69736
G1 X134.574 Y91.941 E160.14811
G1 X135.256 Y92.445 E160.19888
G1 X135.382 Y92.547 E160.20859
G1 X94.422 Y133.507 E163.67653
G1 X95.057 Y134.286 E163.73669
G1 X136.162 Y93.181 E167.21691
G1 X136.919 Y93.838 E167.27692
G1 X95.714 Y135.044 E170.76564
G1 X95.969 Y135.33 E170.78858
G1 X96.391 Y135.78 E170.82552
G1 X137.655 Y94.517 E174.31915
G1 X138.266 Y95.109 E174.37009
G1 X138.369 Y95.217 E174.37902
G1 X97.091 Y136.495 E177.87388
G1 X97.456 Y136.852 E177.90445
G1 X97.82 Y137.18 E177.93378
G1 X139.056 Y95.944 E181.42509
G1 X139.64 Y96.596 E181.47749
G1 X139.72 Y96.695 E181.48511
G1 X98.57 Y137.844 E184.9691
G1 X99.051 Y138.242 E185.00647
G1 X99.351 Y138.477 E185.02929
G1 X140.354 Y97.475 E188.50083
G1 X140.967 Y98.276 E188.56121
G1 X100.15 Y139.093 E192.01704
G1 X100.975 Y139.682 E192.07773
G1 X141.556 Y99.101 E195.51358
G1 X142.067 Y99.857 E195.56821
G1 X142.124 Y99.947 E195.57459
G1 X101.819 Y140.252 E198.98707
G1 X102.199 Y140.505 E199.0144
G1 X102.622 Y140.864 E199.04762
G1 X142.662 Y100.823 E202.43771
G1 X143.09 Y101.564 E202.48894
G1 X143.173 Y101.726 E202.49984
G1 X103.309 Y141.591 E205.87502
G1 X103.941 Y142.373 E205.93522
G1 X143.654 Y102.66 E209.29758
G1 X143.972 Y103.32 E209.34144
G1 X144.104 Y103.624 E209.36128
G1 X104.622 Y143.106 E212.70408
G1 X105.157 Y143.657 E212.75006
G1 X105.332 Y143.81 E212.76398
G1 X144.525 Y104.617 E216.08231
G1 X144.71 Y105.089 E216.11266
G1 X144.911 Y105.645 E216.14806
G1 X106.086 Y144.47 E219.43523
G1 X106.424 Y144.739 E219.46109
G1 X106.892 Y145.078 E219.49569
G1 X145.277 Y106.694 E222.74557
G1 X145.565 Y107.631 E222.80426
G1 X145.605 Y107.78 E222.81349
G1 X107.719 Y145.666 E226.02117
G1 X107.916 Y145.792 E226.03517
G1 X108.606 Y146.193 E226.08295
G1 X145.893 Y108.906 E229.23991
G1 X145.99 Y109.324 E229.2656
G1 X146.143 Y110.07 E229.31119
G1 X109.519 Y146.695 E232.41205
G1 X109.983 Y146.926 E232.44309
G1 X110.488 Y147.139 E232.4759
G1 X146.353 Y111.274 E235.51246
G1 X146.466 Y112.069 E235.56054
G1 X146.518 Y112.524 E235.58795
G1 X111.506 Y147.536 E238.5523
G1 X112.44 Y147.844 E238.61117
G1 X112.576 Y147.88 E238.6196
G1 X146.632 Y113.824 E241.503
G1 X146.669 Y114.444 E241.54018
