;FLAVOR:Marlin
;TIME:1365
;Filament used: 0.363339m
;Layer height: 0.12
;MINX:98.109
;MINY:98.111
;MINZ:0.144
;MAXX:136.891
;MAXY:136.889
;MAXZ:10.674
;Generated with Cura_SteamEngine 5.0.0
M140 S62
M105
M190 S62
M104 S200
M105
M109 S200
M82 ;absolute extrusion mode
M201 X500.00 Y500.00 Z100.00 E5000.00 ;Setup machine max acceleration
M203 X500.00 Y500.00 Z10.00 E50.00 ;Setup machine max feedrate
M204 P500.00 R1000.00 T500.00 ;Setup Print/Retract/Travel acceleration
M205 X8.00 Y8.00 Z0.40 E5.00 ;Setup Jerk
M220 S100 ;Reset Feedrate
M221 S100 ;Reset Flowrate

G28 ;Home

G92 E0 ;Reset Extruder
G1 Z2.0 F3000 ;Move Z Axis up
G1 X10.1 Y20 Z0.28 F5000.0 ;Move to start position
G1 X10.1 Y200.0 Z0.28 F1500.0 E15 ;Draw the first line
G1 X10.4 Y200.0 Z0.28 F5000.0 ;Move to side a little
G1 X10.4 Y20 Z0.28 F1500.0 E30 ;Draw the second line
G92 E0 ;Reset Extruder
G1 Z2.0 F3000 ;Move Z Axis up

G92 E0
G92 E0
G1 F1500 E-6
;LAYER_COUNT:83
;LAYER:-6
M107 P1
G0 F9000 X99.175 Y113.785 Z0.144
;TYPE:SUPPORT-INTERFACE
G1 F1500 E0
G1 F1125 X99.175 Y115.033 E0.05977
G1 X99.185 Y115.897 E0.10116
G1 X99.175 Y116.2 E0.11568
G1 X99.175 Y118.842 E0.24221
G1 X99.185 Y119.69 E0.28283
G1 X99.175 Y119.999 E0.29764
G1 X99.175 Y121.161 E0.35329
G1 X99.18 Y121.439 E0.36661
G1 X99.191 Y121.849 E0.38625
G1 X99.276 Y122.913 E0.43737
G1 X99.407 Y123.801 E0.48037
G1 X99.636 Y124.849 E0.53174
G1 X99.826 Y125.492 E0.56386
G1 X99.99 Y126.026 E0.59061
G1 X100.31 Y126.861 E0.63344
G1 X100.762 Y127.839 E0.68504
G1 X101.087 Y128.422 E0.71701
G1 X101.358 Y128.898 E0.74324
G1 X101.852 Y129.645 E0.78614
G1 X102.012 Y129.863 E0.79909
G1 X102.506 Y130.504 E0.83785
G1 X102.674 Y130.7 E0.85021
G1 X103.328 Y131.42 E0.8968
G1 X103.979 Y132.047 E0.94009
G1 X104.79 Y132.729 E0.99084
G1 X105.295 Y133.096 E1.02074
G1 X105.638 Y133.341 E1.04092
G1 X105.901 Y133.51 E1.0559
G1 X106.705 Y133.994 E1.10084
G1 X107.493 Y134.4 E1.1433
G1 X107.75 Y134.516 E1.1568
G1 X108.48 Y134.827 E1.19481
G1 X109.481 Y135.173 E1.24553
G1 X109.736 Y135.246 E1.25824
G1 X110.677 Y135.488 E1.30477
G1 X111.564 Y135.652 E1.34797
G1 X111.815 Y135.685 E1.3601
G1 X112.634 Y135.776 E1.39957
G1 X113.764 Y135.823 E1.45373
G1 X121.164 Y135.823 E1.80815
G1 X121.442 Y135.818 E1.82147
G1 X121.852 Y135.807 E1.84111
G1 X122.915 Y135.722 E1.89219
G1 X123.802 Y135.591 E1.93513
G1 X124.852 Y135.362 E1.9866
G1 X125.405 Y135.201 E2.01419
G1 X125.858 Y135.066 E2.03683
G1 X126.106 Y134.978 E2.04943
G1 X127.014 Y134.624 E2.09611
G1 X127.84 Y134.236 E2.13982
G1 X128.359 Y133.948 E2.16824
G1 X128.9 Y133.64 E2.19806
G1 X129.647 Y133.146 E2.24095
G1 X129.865 Y132.986 E2.2539
G1 X130.505 Y132.493 E2.2926
G1 X130.983 Y132.067 E2.32326
G1 X131.422 Y131.668 E2.35168
G1 X132.049 Y131.017 E2.39497
G1 X132.731 Y130.206 E2.44572
G1 X133.096 Y129.706 E2.47537
G1 X133.345 Y129.358 E2.49586
G1 X133.511 Y129.101 E2.51051
G1 X133.918 Y128.433 E2.54798
G1 X134.403 Y127.503 E2.59821
G1 X134.515 Y127.253 E2.61133
G1 X134.825 Y126.526 E2.64919
G1 X134.933 Y126.234 E2.6641
G1 X135.176 Y125.517 E2.70036
G1 X135.246 Y125.268 E2.71274
G1 X135.49 Y124.321 E2.75958
G1 X135.653 Y123.441 E2.80245
G1 X135.778 Y122.363 E2.85442
G1 X135.826 Y121.215 E2.90945
G1 X135.826 Y120.149 E2.96051
G1 X135.815 Y119.089 E3.01128
G1 X135.826 Y118.793 E3.02547
G1 X135.825 Y116.16 E3.15157
G1 X135.815 Y115.275 E3.19396
G1 X135.826 Y114.994 E3.20743
G1 X135.826 Y113.836 E3.26289
G1 X135.809 Y113.148 E3.29585
G1 X135.724 Y112.085 E3.34693
G1 X135.593 Y111.198 E3.38987
G1 X135.363 Y110.148 E3.44135
G1 X135.198 Y109.576 E3.46987
G1 X135.069 Y109.145 E3.49141
G1 X134.979 Y108.894 E3.50418
G1 X134.626 Y107.988 E3.55075
G1 X134.24 Y107.167 E3.59421
G1 X133.725 Y106.237 E3.64512
G1 X133.145 Y105.352 E3.6958
G1 X132.996 Y105.15 E3.70782
G1 X132.384 Y104.366 E3.75546
G1 X131.67 Y103.58 E3.80631
G1 X131.021 Y102.953 E3.84953
G1 X130.208 Y102.269 E3.90042
G1 X129.713 Y101.909 E3.92974
G1 X129.361 Y101.657 E3.95047
G1 X129.107 Y101.495 E3.9649
G1 X128.296 Y101.006 E4.01026
G1 X127.505 Y100.599 E4.05286
G1 X127.239 Y100.479 E4.06684
G1 X126.528 Y100.177 E4.10384
G1 X126.235 Y100.069 E4.11879
G1 X125.521 Y99.828 E4.15488
G1 X125.255 Y99.752 E4.16813
G1 X124.323 Y99.512 E4.21423
G1 X123.441 Y99.349 E4.25719
G1 X122.367 Y99.224 E4.30897
G1 X121.235 Y99.177 E4.36323
G1 X113.836 Y99.177 E4.71761
G1 X113.558 Y99.182 E4.73092
G1 X113.148 Y99.193 E4.75057
G1 X112.085 Y99.278 E4.80164
G1 X111.198 Y99.409 E4.84459
G1 X110.148 Y99.638 E4.89606
G1 X109.595 Y99.799 E4.92364
G1 X109.142 Y99.934 E4.94628
G1 X108.894 Y100.022 E4.95888
G1 X107.986 Y100.376 E5.00556
G1 X107.16 Y100.764 E5.04927
G1 X106.641 Y101.052 E5.0777
G1 X106.1 Y101.36 E5.10751
G1 X105.353 Y101.854 E5.15041
G1 X105.135 Y102.014 E5.16336
G1 X104.495 Y102.507 E5.20205
G1 X104.017 Y102.933 E5.23272
G1 X103.578 Y103.332 E5.26113
G1 X102.951 Y103.983 E5.30442
G1 X102.269 Y104.794 E5.35517
G1 X101.904 Y105.294 E5.38482
G1 X101.655 Y105.642 E5.40531
G1 X101.489 Y105.899 E5.41997
G1 X101.082 Y106.567 E5.45743
G1 X100.597 Y107.497 E5.50767
G1 X100.485 Y107.747 E5.52079
G1 X100.175 Y108.474 E5.55864
G1 X100.076 Y108.743 E5.57237
G1 X99.824 Y109.483 E5.60981
G1 X99.754 Y109.732 E5.6222
G1 X99.51 Y110.679 E5.66903
G1 X99.347 Y111.559 E5.7119
G1 X99.222 Y112.637 E5.76387
G1 X99.175 Y113.785 E5.8189
G0 F9000 X99.601 Y113.177
G1 F1125 X121.829 Y135.406 E7.32451
G0 F9000 X123.854 Y135.167
G1 F1125 X99.831 Y111.145 E8.95163
G0 F9000 X100.295 Y109.346
G1 F1125 X125.654 Y134.705 E10.66928
G0 F9000 X127.271 Y134.059
G1 F1125 X100.935 Y107.723 E12.4531
G0 F9000 X101.739 Y106.265
G1 F1125 X128.739 Y133.264 E14.28186
G0 F9000 X130.063 Y132.325
G1 F1125 X102.675 Y104.938 E16.1369
G0 F9000 X103.741 Y103.741
G1 F1125 X131.259 Y131.259 E18.00078
G0 F9000 X132.325 Y130.062
G1 F1125 X104.937 Y102.675 E19.85583
G0 F9000 X106.261 Y101.736
G1 F1125 X133.261 Y128.735 E21.68459
G0 F9000 X134.064 Y127.276
G1 F1125 X107.729 Y100.941 E23.46834
G0 F9000 X109.346 Y100.295
G1 F1125 X134.706 Y125.655 E25.18606
G0 F9000 X135.169 Y123.855
G1 F1125 X111.146 Y99.833 E26.81318
G0 F9000 X113.171 Y99.594
G1 F1125 X135.399 Y121.823 E28.31878
G0 F9000 X135.42 Y119.581
G1 F1125 X115.417 Y99.578 E29.67365
G0 F9000 X117.679 Y99.578
G1 F1125 X135.425 Y117.324 E30.87564
G0 F9000 X135.423 Y115.059
G1 F1125 X119.942 Y99.578 E31.92422
G0 F9000 X122.247 Y99.621
G1 F1125 X135.375 Y112.749 E32.81342
G0 F9000 X134.911 Y110.021
G1 F1125 X124.991 Y100.101 E33.48534
G1 F1500 E27.48534
G0 F9000 X125.846 Y98.812
G0 X127.764 Y99.545
G0 X128.105 Y99.72
G0 X129.769 Y100.65
G0 X129.167 Y102.015
G1 F1500 E33.48534
G1 F1125 X132.963 Y105.811 E33.74245
G1 F1500 E27.74245
G0 F9000 X134.188 Y104.997
G0 X135.192 Y106.69
G0 X136.013 Y108.617
G0 X136.399 Y109.898
G0 X136.781 Y111.956
G0 X136.891 Y113.829
G0 X136.852 Y122.281
G0 X136.705 Y123.607
G0 X136.253 Y125.634
G0 X135.813 Y126.924
G0 X134.931 Y128.804
G0 X134.222 Y129.963
G0 X132.951 Y131.607
G0 X132.028 Y132.564
G0 X130.427 Y133.897
G0 X129.308 Y134.639
G0 X127.443 Y135.599
G0 X126.184 Y136.08
G0 X124.16 Y136.609
G0 X122.847 Y136.8
G0 X121.899 Y136.85
G0 X119.583 Y136.889
G0 X119.583 Y135.422
G1 F1500 E33.74245
G1 F1125 X99.581 Y115.42 E35.09725
G0 F9000 X99.575 Y117.676
G1 F1125 X117.321 Y135.422 E36.29924
G0 F9000 X115.058 Y135.422
G1 F1125 X99.578 Y119.942 E37.34775
G0 F9000 X99.626 Y122.252
G1 F1125 X112.753 Y135.379 E38.23689
G0 F9000 X110.01 Y134.899
G1 F1125 X100.095 Y124.984 E38.90846
G1 F1500 E32.90846
G0 F9000 X98.918 Y126.182
G0 X99.391 Y127.424
G0 X99.533 Y127.723
G0 X100.455 Y129.464
G0 X102.032 Y129.184
G1 F1500 E38.90846
G1 F1125 X105.832 Y132.984 E39.16585
G1 F1500 E33.16585
G0 F300 X105.832 Y132.984 Z0.324
G0 F9000 X104.977 Y134.18
G0 X103.391 Y132.949
G0 X102.434 Y132.026
G0 X101.101 Y130.425
G0 X100.359 Y129.306
G0 X99.391 Y127.424
G0 X98.918 Y126.182
G0 X98.389 Y124.158
G0 X98.198 Y122.845
G0 X98.109 Y121.171
G0 X98.148 Y112.719
G0 X98.295 Y111.393
G0 X98.747 Y109.366
G0 X99.187 Y108.076
G0 X100.069 Y106.196
G0 X101.538 Y106.593
;TIME_ELAPSED:55.041302
;LAYER:-5
;TYPE:SUPPORT
G1 F1500 E39.16585
G1 F1125 X106.59 Y101.541 E39.59358
G1 X106.308 Y101.701 E39.61299
G1 X105.432 Y102.29 E39.67619
G1 X104.633 Y102.914 E39.73688
G1 X103.852 Y103.624 E39.80007
G1 X103.258 Y104.239 E39.85126
G1 X102.591 Y105.032 E39.9133
G1 X101.975 Y105.883 E39.97619
G1 X101.427 Y106.774 E40.03882
G1 X100.95 Y107.687 E40.10049
G1 X100.877 Y107.845 E40.11091
G1 X100.488 Y108.776 E40.17131
G1 X100.348 Y109.198 E40.19793
G1 X109.209 Y100.336 E40.94821
G1 X110.268 Y100.02 E41.01437
G1 X111.127 Y99.828 E41.06706
G1 X99.839 Y111.12 E42.02295
G1 X99.743 Y111.624 E42.05366
G1 X99.621 Y112.666 E42.11647
G1 X99.618 Y112.756 E42.12186
G1 X112.746 Y99.628 E43.23337
G1 X113.169 Y99.594 E43.25877
G1 X113.844 Y99.577 E43.2992
G1 X114.21 Y99.577 E43.32111
G1 X99.575 Y114.212 E44.5602
G1 X99.575 Y114.945 E44.60408
G1 X99.587 Y115.615 E44.6442
G1 X115.625 Y99.577 E46.00208
G1 X117.039 Y99.577 E46.08674
G1 X99.575 Y117.041 E47.56535
G1 X99.575 Y118.454 E47.64995
G1 X118.451 Y99.578 E49.24811
G1 X119.865 Y99.578 E49.33277
G1 X99.594 Y119.849 E51.04904
G1 X99.575 Y120.155 E51.06739
G1 X99.578 Y121.28 E51.13475
G1 X121.277 Y99.581 E52.97192
G1 X122.33 Y99.623 E53.03502
G1 X122.616 Y99.656 E53.05225
G1 X99.655 Y122.618 E54.99632
G1 X99.673 Y122.857 E55.01067
G1 X99.804 Y123.745 E55.06441
G1 X99.829 Y123.857 E55.07128
G1 X123.851 Y99.835 E57.10514
G1 X124.37 Y99.934 E57.13677
G1 X125 Y100.101 E57.17579
G1 X100.099 Y125.002 E59.28407
G1 X100.314 Y125.732 E59.32963
G1 X100.443 Y126.072 E59.3514
G1 X126.076 Y100.439 E61.52166
G1 X126.22 Y100.488 E61.53076
G1 X127.082 Y100.847 E61.58667
G1 X100.849 Y127.08 E63.80772
G1 X101.114 Y127.646 E63.84514
G1 X101.324 Y128.019 E63.87076
G1 X128.023 Y101.32 E66.13127
G1 X128.228 Y101.429 E66.14517
G1 X128.909 Y101.848 E66.19304
G1 X101.848 Y128.909 E68.4842
G1 X102.279 Y129.554 E68.53065
G1 X102.428 Y129.744 E68.5451
G1 X129.743 Y102.429 E70.85777
G1 X129.97 Y102.593 E70.87453
G1 X130.526 Y103.06 E70.918
G1 X103.06 Y130.526 E73.24345
G1 X103.622 Y131.146 E73.29355
G1 X103.739 Y131.261 E73.30337
G1 X131.261 Y103.739 E75.63356
G1 X131.378 Y103.854 E75.64338
G1 X131.94 Y104.474 E75.69348
G1 X104.474 Y131.94 E78.01893
G1 X105.03 Y132.407 E78.0624
G1 X105.257 Y132.571 E78.07917
G1 X132.572 Y105.256 E80.39183
G1 X132.721 Y105.446 E80.40629
G1 X133.153 Y106.09 E80.45271
G1 X106.091 Y133.152 E82.74396
G1 X106.772 Y133.571 E82.79183
G1 X106.977 Y133.68 E82.80573
G1 X133.679 Y106.978 E85.06649
G1 X133.886 Y107.355 E85.09224
G1 X134.151 Y107.92 E85.1296
G1 X107.918 Y134.153 E87.35066
G1 X108.78 Y134.512 E87.40656
G1 X108.924 Y134.561 E87.41567
G1 X134.557 Y108.928 E89.58592
G1 X134.681 Y109.25 E89.60658
G1 X134.901 Y109.998 E89.65326
G1 X110 Y134.899 E91.76154
G1 X110.63 Y135.066 E91.80056
G1 X111.149 Y135.165 E91.83219
G1 X135.174 Y111.139 E93.86635
G1 X135.324 Y112.116 E93.92552
G1 X135.345 Y112.383 E93.94156
G1 X112.384 Y135.344 E95.88558
G1 X112.67 Y135.377 E95.90282
G1 X113.723 Y135.419 E95.96591
G1 X135.422 Y113.72 E97.80309
G1 X135.425 Y114.845 E97.87044
G1 X135.401 Y114.845 E97.87188
G1 X135.406 Y115.151 E97.8902
G1 X115.135 Y135.422 E99.60647
G1 X116.549 Y135.422 E99.69113
G1 X135.425 Y116.546 E101.28929
G1 X135.425 Y117.959 E101.37389
G1 X117.961 Y135.423 E102.8525
G1 X119.375 Y135.423 E102.93716
G1 X135.413 Y119.385 E104.29504
G1 X135.425 Y120.055 E104.33515
G1 X135.425 Y120.788 E104.37904
G1 X120.79 Y135.423 E105.61813
G1 X121.156 Y135.423 E105.64004
G1 X121.831 Y135.406 E105.68047
G1 X122.254 Y135.372 E105.70587
G1 X135.382 Y122.245 E106.81733
G1 X135.379 Y122.328 E106.8223
G1 X135.257 Y123.376 E106.88547
G1 X135.161 Y123.88 E106.91619
G1 X123.868 Y135.173 E107.87233
G1 X124.732 Y134.98 E107.92533
G1 X125.793 Y134.662 E107.99164
G1 X134.653 Y125.802 E108.74178
G1 X134.447 Y126.39 E108.77908
G1 X134.05 Y127.313 E108.83924
G1 X133.573 Y128.226 E108.90091
G1 X133.025 Y129.117 E108.96353
G1 X132.409 Y129.968 E109.02643
G1 X131.744 Y130.758 E109.08825
G1 X131.148 Y131.376 E109.13965
G1 X130.367 Y132.086 E109.20284
G1 X129.568 Y132.71 E109.26353
G1 X128.692 Y133.299 E109.32673
G1 X128.409 Y133.46 E109.34622
G1 X133.462 Y128.407 E109.77404
G1 F1500 E103.77404
G0 F300 X133.462 Y128.407 Z0.444
G0 F9000 X134.839 Y128.967
G0 X135.457 Y127.762
G0 X136.19 Y125.844
G0 X136.532 Y124.54
G0 X136.839 Y122.455
G0 X136.89 Y118.812
G0 X136.872 Y113.086
G0 X136.643 Y111.018
G0 X136.347 Y109.703
G0 X135.676 Y107.737
G0 X135.104 Y106.519
G0 X134.022 Y104.748
G0 X133.194 Y103.673
G0 X132.371 Y102.821
G0 X131.609 Y102.051
G0 X130.466 Y102.749
;TIME_ELAPSED:120.173210
;LAYER:-4
;TYPE:SUPPORT-INTERFACE
G1 F1500 E109.77404
G1 X132.33 Y104.612 E109.82663
G1 X131.522 Y103.715 E109.85073
G1 X130.881 Y103.097 E109.86849
G1 X130.086 Y102.429 E109.88922
G1 X129.248 Y101.823 E109.90985
G1 X129.093 Y101.72 E109.91357
G1 X128.528 Y101.376 E109.92677
G1 X133.616 Y106.464 E110.07036
G1 X134.053 Y107.239 E110.08812
G1 X134.255 Y107.669 E110.0976
G1 X127.321 Y100.734 E110.29331
G1 X126.449 Y100.362 E110.31223
G1 X126.348 Y100.327 E110.31436
G1 X134.667 Y108.646 E110.54914
G1 X134.872 Y109.192 E110.56078
G1 X134.966 Y109.512 E110.56743
G1 X125.479 Y100.024 E110.83519
G1 X124.704 Y99.815 E110.85121
G1 X135.193 Y110.304 E111.14723
G1 X135.351 Y111.028 E111.16202
G1 X123.98 Y99.657 E111.48293
G1 X123.399 Y99.546 E111.49474
G1 X123.292 Y99.534 E111.49689
G1 X135.463 Y111.705 E111.84038
G1 X135.543 Y112.266 E111.85169
G1 X135.549 Y112.357 E111.85351
G1 X122.652 Y99.46 E112.21749
G1 X122.352 Y99.425 E112.22352
G1 X122.038 Y99.412 E112.22979
G1 X135.592 Y112.965 E112.6123
G1 X135.621 Y113.56 E112.62418
G1 X121.449 Y99.388 E113.02415
G1 X121.22 Y99.378 E113.02872
G1 X120.873 Y99.378 E113.03565
G1 X135.625 Y114.13 E113.45198
G1 X135.625 Y114.695 E113.46326
G1 X120.307 Y99.378 E113.89555
G1 X119.742 Y99.378 E113.90682
G1 X135.617 Y115.253 E114.35485
G1 X135.611 Y115.441 E114.35861
G1 X135.618 Y115.82 E114.36617
G1 X119.176 Y99.378 E114.8302
G1 X118.61 Y99.378 E114.84149
G1 X135.625 Y116.392 E115.32168
G1 X135.625 Y116.958 E115.33297
G1 X118.045 Y99.378 E115.82912
G1 X117.479 Y99.377 E115.84042
G1 X135.625 Y117.523 E116.35253
G1 X135.625 Y118.089 E116.36383
G1 X116.914 Y99.377 E116.89191
G1 X116.348 Y99.377 E116.9032
G1 X135.625 Y118.654 E117.44724
G1 X135.613 Y119.208 E117.4583
G1 X115.782 Y99.377 E118.01797
G1 X115.217 Y99.377 E118.02925
G1 X135.621 Y119.781 E118.60509
G1 X135.625 Y120.352 E118.61649
G1 X114.651 Y99.377 E119.20844
G1 X114.085 Y99.377 E119.21973
G1 X135.625 Y120.918 E119.82765
G1 X135.625 Y121.2 E119.83328
G1 X135.614 Y121.472 E119.83871
G1 X113.524 Y99.382 E120.46214
G1 X113.335 Y99.385 E120.46591
G1 X112.986 Y99.41 E120.47289
G1 X135.592 Y122.015 E121.11087
G1 X135.555 Y122.545 E121.12147
G1 X112.457 Y99.447 E121.77335
G1 X112.264 Y99.459 E121.77721
G1 X111.948 Y99.503 E121.78357
G1 X135.497 Y123.052 E122.44818
G1 X135.428 Y123.549 E122.45819
G1 X111.457 Y99.577 E123.13472
G1 X110.972 Y99.659 E123.14453
G1 X135.338 Y124.025 E123.83219
G1 X135.243 Y124.495 E123.84176
G1 X110.51 Y99.762 E124.53978
G1 X110.057 Y99.874 E124.54909
G1 X135.123 Y124.941 E125.25653
G1 X135.004 Y125.387 E125.26574
G1 X109.62 Y100.003 E125.98213
G1 X109.184 Y100.133 E125.99121
G1 X134.864 Y125.813 E126.71595
G1 X134.72 Y126.235 E126.72485
G1 X108.773 Y100.287 E127.45715
G1 X108.365 Y100.445 E127.46588
G1 X134.559 Y126.64 E128.20514
G1 X134.392 Y127.038 E128.21376
G1 X107.963 Y100.609 E128.95964
G1 X107.578 Y100.789 E128.96812
G1 X134.216 Y127.428 E129.71992
G1 X134.022 Y127.8 E129.72829
G1 X107.196 Y100.973 E130.48539
G1 X106.834 Y101.177 E130.49368
G1 X133.828 Y128.171 E131.25551
G1 X133.623 Y128.532 E131.2638
G1 X106.472 Y101.381 E132.03006
G1 X106.116 Y101.591 E132.0383
G1 X133.409 Y128.883 E132.80856
G1 X133.19 Y129.23 E132.81675
G1 X105.778 Y101.818 E133.59037
G1 X105.439 Y102.045 E133.59851
G1 X132.953 Y129.559 E134.37502
G1 X132.716 Y129.887 E134.38309
G1 X105.113 Y102.285 E135.1621
G1 X104.794 Y102.531 E135.17014
G1 X132.47 Y130.207 E135.95121
